; generated by PrusaSlicer 2.3.1+linux-x64 on 2021-05-27 at 05:43:38 UTC

; 

; external perimeters extrusion width = 0.45mm
; perimeters extrusion width = 0.45mm
; infill extrusion width = 0.45mm
; solid infill extrusion width = 0.45mm
; top infill extrusion width = 0.40mm
; support material extrusion width = 0.35mm
; first layer extrusion width = 0.42mm

M73 P0 R44
M73 Q0 S44
M201 X1000 Y1000 Z200 E5000 ; sets maximum accelerations, mm/sec^2
M203 X200 Y200 Z12 E120 ; sets maximum feedrates, mm/sec
M204 P1250 R1250 T1250 ; sets acceleration (P, T) and retract acceleration (R), mm/sec^2
M205 X8.00 Y8.00 Z0.40 E4.50 ; sets the jerk limits, mm/sec
M205 S0 T0 ; sets the minimum extruding and travel feed rate, mm/sec
M107
;TYPE:Custom
M862.3 P "MK3S" ; printer model check
M862.1 P0.4 ; nozzle diameter check
M115 U3.9.3 ; tell printer latest fw version
G90 ; use absolute coordinates
M83 ; extruder relative mode
M104 S205 ; set extruder temp
M140 S70 ; set bed temp
M190 S70 ; wait for bed temp
M109 S205 ; wait for extruder temp
G28 W ; home all without mesh bed level
G80 ; mesh bed leveling
G1 Y-3.0 F1000.0 ; go outside print area
G92 E0.0
G1 X60.0 E9.0 F1000.0 ; intro line
G1 X100.0 E12.5 F1000.0 ; intro line
G92 E0.0
M221 S95

; Don't change E values below. Excessive value can damage the printer.
M907 E430 ; set extruder motor current
G21 ; set units to millimeters
G90 ; use absolute coordinates
M83 ; use relative distances for extrusion
M900 K0.05 ; Filament gcode LA 1.5
M900 K30 ; Filament gcode LA 1.0
;LAYER_CHANGE
;Z:0.2
;HEIGHT:0.2
;BEFORE_LAYER_CHANGE
G92 E0.0
;0.2


G1 E-0.80000 F2100.000
G1 Z0.400 F10800.000
;AFTER_LAYER_CHANGE
;0.2
G1 X73.338 Y105.642
G1 Z0.200
G1 E0.80000 F2100.000
M204 S1000
;TYPE:Skirt
;WIDTH:0.42
G1 F1200.000
G1 X73.875 Y104.904 E0.02859
G1 X74.943 Y103.930 E0.04533
G1 X75.841 Y103.479 E0.03152
G1 X76.870 Y103.198 E0.03344
G1 X85.853 Y103.182 E0.28167
G1 X86.800 Y103.396 E0.03043
G1 X87.659 Y103.776 E0.02945
G1 X88.822 Y104.717 E0.04691
G1 X89.621 Y105.863 E0.04379
G1 X90.068 Y107.259 E0.04598
G1 X90.115 Y120.375 E0.41125
G1 X89.515 Y122.300 E0.06322
G1 X88.978 Y123.038 E0.02859
G1 X87.909 Y124.012 E0.04537
G1 X86.990 Y124.470 E0.03217
G1 X85.769 Y124.773 E0.03947
G1 X77.145 Y124.784 E0.27039
G1 X75.222 Y124.184 E0.06316
G1 X74.485 Y123.648 E0.02859
G1 X73.510 Y122.578 E0.04537
G1 X73.053 Y121.659 E0.03218
G1 X72.738 Y120.347 E0.04231
G1 X72.738 Y107.564 E0.40080
G1 X73.320 Y105.699 E0.06128
G1 X73.680 Y105.813 F10800.000
G1 F1200.000
G1 X74.143 Y105.169 E0.02486
G1 X75.137 Y104.254 E0.04237
G1 X75.960 Y103.838 E0.02891
G1 X76.945 Y103.568 E0.03204
G1 X85.792 Y103.555 E0.27739
G1 X86.665 Y103.749 E0.02803
G1 X87.483 Y104.111 E0.02805
G1 X88.563 Y104.992 E0.04369
G1 X89.294 Y106.053 E0.04041
G1 X89.700 Y107.344 E0.04245
G1 X89.738 Y120.347 E0.40768
G1 X89.165 Y122.156 E0.05950
G1 X88.710 Y122.772 E0.02403
G1 X87.715 Y123.688 E0.04238
G1 X86.879 Y124.109 E0.02937
G1 X85.700 Y124.402 E0.03808
G1 X77.174 Y124.407 E0.26732
G1 X75.367 Y123.835 E0.05946
G1 X74.750 Y123.379 E0.02403
G1 X73.835 Y122.385 E0.04238
G1 X73.414 Y121.548 E0.02935
G1 X73.115 Y120.324 E0.03951
G1 X73.115 Y107.594 E0.39916
G1 X73.661 Y105.870 E0.05671
G1 X74.011 Y105.983 F10800.000
G1 F1200.000
G1 X74.414 Y105.433 E0.02140
G1 X75.333 Y104.578 E0.03937
G1 X76.078 Y104.196 E0.02625
G1 X77.021 Y103.938 E0.03063
G1 X85.731 Y103.928 E0.27310
G1 X86.564 Y104.113 E0.02677
G1 X87.305 Y104.444 E0.02546
G1 X88.302 Y105.265 E0.04047
G1 X88.966 Y106.241 E0.03702
G1 X89.331 Y107.428 E0.03895
G1 X89.361 Y120.318 E0.40417
G1 X88.842 Y121.958 E0.05393
G1 X88.440 Y122.509 E0.02140
G1 X87.520 Y123.364 E0.03937
G1 X86.766 Y123.748 E0.02651
G1 X85.632 Y124.030 E0.03667
G1 X77.203 Y124.030 E0.26426
G1 X75.564 Y123.512 E0.05391
G1 X75.013 Y123.109 E0.02140
G1 X74.158 Y122.189 E0.03937
G1 X73.774 Y121.436 E0.02651
G1 X73.492 Y120.301 E0.03667
G1 X73.492 Y107.623 E0.39752
G1 X73.992 Y106.041 E0.05203
G1 X74.334 Y106.180 F10800.000
G1 F1200.000
G1 X74.685 Y105.694 E0.01879
G1 X75.530 Y104.900 E0.03636
G1 X76.197 Y104.555 E0.02355
G1 X77.096 Y104.309 E0.02921
G1 X85.671 Y104.300 E0.26886
G1 X86.429 Y104.465 E0.02432
G1 X87.128 Y104.778 E0.02401
G1 X88.039 Y105.537 E0.03719
G1 X88.637 Y106.426 E0.03361
G1 X88.962 Y107.509 E0.03546
G1 X88.984 Y120.290 E0.40073
G1 X88.519 Y121.762 E0.04840
G1 X88.168 Y122.247 E0.01879
G1 X87.323 Y123.042 E0.03636
G1 X86.652 Y123.388 E0.02367
G1 X85.608 Y123.653 E0.03378
G1 X77.232 Y123.653 E0.26261
G1 X75.760 Y123.189 E0.04840
G1 X75.275 Y122.837 E0.01879
G1 X74.481 Y121.992 E0.03636
G1 X74.134 Y121.321 E0.02367
G1 X73.869 Y120.277 E0.03378
G1 X73.869 Y107.652 E0.39586
G1 X74.316 Y106.237 E0.04651
G1 X74.658 Y106.375 F10800.000
G1 F1200.000
G1 X74.959 Y105.954 E0.01620
G1 X75.730 Y105.221 E0.03336
G1 X76.317 Y104.913 E0.02080
G1 X77.171 Y104.679 E0.02776
G1 X85.612 Y104.673 E0.26467
G1 X86.293 Y104.818 E0.02183
G1 X86.949 Y105.111 E0.02252
G1 X87.774 Y105.807 E0.03385
G1 X88.307 Y106.610 E0.03020
G1 X88.593 Y107.589 E0.03198
G1 X88.607 Y120.261 E0.39734
G1 X88.195 Y121.567 E0.04293
G1 X87.894 Y121.987 E0.01620
G1 X87.123 Y122.721 E0.03336
G1 X86.535 Y123.029 E0.02082
G1 X85.583 Y123.276 E0.03084
G1 X77.261 Y123.276 E0.26094
G1 X75.955 Y122.864 E0.04293
G1 X75.535 Y122.563 E0.01620
G1 X74.802 Y121.793 E0.03336
G1 X74.493 Y121.205 E0.02082
G1 X74.246 Y120.253 E0.03084
G1 X74.246 Y107.680 E0.39419
M73 P0 R43
G1 X74.640 Y106.432 E0.04105
G1 X74.983 Y106.568 F10800.000
G1 F1200.000
G1 X75.234 Y106.213 E0.01364
G1 X75.931 Y105.541 E0.03036
G1 X76.437 Y105.271 E0.01799
G1 X77.246 Y105.049 E0.02629
G1 X85.556 Y105.047 E0.26053
G1 X86.159 Y105.171 E0.01931
G1 X86.770 Y105.444 E0.02099
G1 X87.508 Y106.075 E0.03045
G1 X87.974 Y106.790 E0.02679
G1 X88.223 Y107.666 E0.02853
G1 X88.230 Y120.233 E0.39403
G1 X87.870 Y121.374 E0.03752
G1 X87.619 Y121.729 E0.01364
G1 X86.922 Y122.401 E0.03036
G1 X86.416 Y122.671 E0.01797
G1 X85.558 Y122.899 E0.02784
G1 X77.290 Y122.899 E0.25925
G1 X76.148 Y122.540 E0.03752
G1 X75.793 Y122.288 E0.01364
G1 X75.121 Y121.591 E0.03036
G1 X74.852 Y121.086 E0.01797
G1 X74.623 Y120.227 E0.02784
G1 X74.623 Y107.709 E0.39250
M73 P1 R43
M73 Q1 S44
G1 X74.965 Y106.625 E0.03564
G1 X75.309 Y106.759 F10800.000
G1 F1200.000
G1 X75.511 Y106.469 E0.01110
G1 X76.135 Y105.859 E0.02736
G1 X76.559 Y105.629 E0.01511
G1 X77.321 Y105.420 E0.02479
G1 X85.535 Y105.424 E0.25753
G1 X86.059 Y105.535 E0.01680
G1 X86.588 Y105.775 E0.01821
G1 X87.239 Y106.341 E0.02705
G1 X87.641 Y106.968 E0.02336
G1 X87.853 Y107.740 E0.02510
G1 X87.853 Y120.204 E0.39079
G1 X87.544 Y121.182 E0.03217
G1 X87.342 Y121.473 E0.01110
G1 X86.718 Y122.083 E0.02736
G1 X86.294 Y122.313 E0.01511
G1 X85.532 Y122.522 E0.02478
G1 X77.319 Y122.522 E0.25753
G1 X76.340 Y122.214 E0.03217
G1 X76.050 Y122.011 E0.01110
G1 X75.439 Y121.387 E0.02736
G1 X75.209 Y120.964 E0.01511
G1 X75.001 Y120.202 E0.02478
G1 X75.001 Y107.738 E0.39079
G1 X75.291 Y106.817 E0.03029
G1 X75.636 Y106.949 F10800.000
G1 F1200.000
G1 X75.791 Y106.723 E0.00859
G1 X76.343 Y106.175 E0.02439
G1 X76.684 Y105.985 E0.01225
G1 X77.348 Y105.797 E0.02164
G1 X85.514 Y105.801 E0.25602
G1 X85.957 Y105.898 E0.01423
G1 X86.403 Y106.105 E0.01543
G1 X86.970 Y106.605 E0.02369
G1 X87.286 Y107.099 E0.01837
G1 X87.475 Y107.767 E0.02179
G1 X87.475 Y120.175 E0.38904
G1 X87.217 Y120.993 E0.02690
G1 X87.062 Y121.219 E0.00859
G1 X86.510 Y121.767 E0.02439
G1 X86.169 Y121.957 E0.01225
G1 X85.505 Y122.145 E0.02163
G1 X77.348 Y122.145 E0.25578
G1 X76.529 Y121.887 E0.02690
G1 X76.303 Y121.732 E0.00859
G1 X75.755 Y121.180 E0.02439
G1 X75.565 Y120.838 E0.01225
G1 X75.378 Y120.175 E0.02163
G1 X75.378 Y107.767 E0.38904
G1 X75.618 Y107.006 E0.02501
G1 X75.964 Y107.136 F10800.000
G1 F1200.000
G1 X76.073 Y106.974 E0.00610
G1 X76.553 Y106.488 E0.02143
G1 X76.813 Y106.340 E0.00939
G1 X77.376 Y106.174 E0.01839
G1 X85.491 Y106.178 E0.25445
G1 X85.851 Y106.261 E0.01157
G1 X86.216 Y106.433 E0.01267
G1 X86.698 Y106.868 E0.02036
G1 X86.933 Y107.232 E0.01357
G1 X87.098 Y107.795 E0.01841
G1 X87.098 Y120.146 E0.38724
G1 X86.889 Y120.806 E0.02172
G1 X86.781 Y120.968 E0.00610
G1 X86.300 Y121.454 E0.02143
G1 X86.040 Y121.602 E0.00939
G1 X85.477 Y121.768 E0.01838
G1 X77.377 Y121.768 E0.25399
G1 X76.716 Y121.558 E0.02172
G1 X76.555 Y121.450 E0.00610
G1 X76.069 Y120.969 E0.02143
G1 X75.920 Y120.709 E0.00939
G1 X75.755 Y120.147 E0.01838
G1 X75.755 Y107.796 E0.38724
G1 X75.946 Y107.193 E0.01984
G1 X76.294 Y107.319 F10800.000
G1 F1200.000
G1 X76.357 Y107.222 E0.00362
G1 X76.769 Y106.798 E0.01851
G1 X76.948 Y106.692 E0.00654
G1 X77.405 Y106.551 E0.01500
G1 X85.469 Y106.555 E0.25284
G1 X85.708 Y106.610 E0.00767
G1 X86.028 Y106.761 E0.01110
G1 X86.425 Y107.128 E0.01694
G1 X86.581 Y107.369 E0.00901
G1 X86.721 Y107.825 E0.01495
G1 X86.721 Y120.116 E0.38539
G1 X86.559 Y120.623 E0.01670
G1 X86.496 Y120.720 E0.00362
G1 X86.084 Y121.143 E0.01851
G1 X85.905 Y121.250 E0.00654
G1 X85.448 Y121.391 E0.01500
G1 X77.406 Y121.391 E0.25213
G1 X76.899 Y121.228 E0.01670
G1 X76.802 Y121.165 E0.00362
G1 X76.379 Y120.754 E0.01851
G1 X76.273 Y120.574 E0.00654
G1 X76.132 Y120.117 E0.01500
G1 X76.132 Y107.826 E0.38539
G1 X76.276 Y107.376 E0.01481
G1 X77.091 Y107.042 F10800.000
G1 F1200.000
G1 X77.437 Y106.928 E0.01143
G1 X85.447 Y106.932 E0.25115
G1 X85.564 Y106.959 E0.00377
G1 X85.838 Y107.089 E0.00949
G1 X86.148 Y107.385 E0.01344
G1 X86.231 Y107.512 E0.00477
G1 X86.344 Y107.856 E0.01136
G1 X86.344 Y120.085 E0.38343
G1 X86.207 Y120.477 E0.01302
G1 X85.863 Y120.837 E0.01561
G1 X85.762 Y120.900 E0.00371
G1 X85.416 Y121.014 E0.01143
G1 X77.437 Y121.014 E0.25017
G1 X77.045 Y120.876 E0.01302
G1 X76.685 Y120.533 E0.01561
G1 X76.623 Y120.432 E0.00371
G1 X76.509 Y120.085 E0.01143
G1 X76.509 Y107.857 E0.38343
G1 X76.646 Y107.465 E0.01302
G1 X76.990 Y107.104 E0.01561
G1 X77.040 Y107.074 E0.00183
G1 X77.245 Y107.387 F10800.000
G1 F1200.000
G1 X77.472 Y107.305 E0.00757
G1 X85.395 Y107.305 E0.24842
G1 X85.645 Y107.415 E0.00856
G1 X85.886 Y107.664 E0.01086
G1 X85.967 Y107.892 E0.00757
G1 X85.967 Y120.050 E0.38123
G1 X85.891 Y120.263 E0.00708
G1 X85.608 Y120.555 E0.01275
G1 X85.381 Y120.637 E0.00757
G1 X77.472 Y120.637 E0.24797
G1 X77.260 Y120.560 E0.00708
G1 X76.967 Y120.278 E0.01275
G1 X76.886 Y120.050 E0.00757
G1 X76.886 Y107.892 E0.38123
G1 X76.962 Y107.679 E0.00708
G1 X77.199 Y107.425 E0.01089
G1 X77.445 Y107.711 F10800.000
G1 F1200.000
G1 X77.514 Y107.682 E0.00235
G1 X85.339 Y107.682 E0.24535
G1 X85.408 Y107.711 E0.00235
G1 X85.561 Y107.864 E0.00679
G1 X85.590 Y107.933 E0.00235
G1 X85.590 Y120.008 E0.37860
G1 X85.561 Y120.078 E0.00235
G1 X85.408 Y120.231 E0.00679
G1 X85.339 Y120.259 E0.00235
G1 X77.514 Y120.259 E0.24535
G1 X77.445 Y120.231 E0.00235
G1 X77.292 Y120.078 E0.00679
G1 X77.263 Y120.008 E0.00235
G1 X77.263 Y107.933 E0.37860
G1 X77.292 Y107.864 E0.00235
G1 X77.402 Y107.754 E0.00490
;WIPE_START
G1 F8640.000
G1 X77.514 Y107.682 E-0.03058
G1 X80.673 Y107.682 E-0.72942
;WIPE_END
G1 E-0.04000 F2100.000
G1 Z0.600 F10800.000
G1 X133.809 Y143.697
G1 Z0.200
G1 E0.80000 F2100.000
G1 F1200.000
G1 X133.267 Y143.681 E0.01702
G1 X132.286 Y143.423 E0.03179
G1 X131.158 Y142.789 E0.04057
G1 X130.179 Y141.802 E0.04358
G1 X129.664 Y140.927 E0.03186
G1 X129.397 Y140.165 E0.02530
G1 X129.263 Y138.593 E0.04948
G1 X129.196 Y138.150 E0.01403
G1 X129.091 Y137.737 E0.01338
G1 X128.945 Y137.336 E0.01338
G1 X128.760 Y136.951 E0.01338
G1 X128.537 Y136.587 E0.01338
G1 X128.279 Y136.247 E0.01338
G1 X127.989 Y135.934 E0.01338
G1 X127.669 Y135.652 E0.01338
G1 X127.323 Y135.403 E0.01338
G1 X126.953 Y135.189 E0.01338
G1 X126.564 Y135.014 E0.01338
G1 X126.159 Y134.878 E0.01338
G1 X125.743 Y134.783 E0.01338
G1 X125.320 Y134.730 E0.01338
G1 X124.893 Y134.719 E0.01338
G1 X124.468 Y134.751 E0.01338
G1 X124.047 Y134.825 E0.01338
G1 X123.637 Y134.941 E0.01338
G1 X123.239 Y135.097 E0.01338
G1 X122.860 Y135.291 E0.01338
G1 X122.501 Y135.523 E0.01338
G1 X122.167 Y135.789 E0.01338
G1 X121.862 Y136.087 E0.01338
G1 X121.578 Y136.425 E0.01383
G1 X121.235 Y136.962 E0.02000
G1 X121.055 Y137.336 E0.01300
G1 X120.909 Y137.737 E0.01338
G1 X120.804 Y138.150 E0.01338
G1 X120.735 Y138.607 E0.01446
G1 X120.586 Y140.238 E0.05138
G1 X120.361 Y140.874 E0.02112
G1 X119.921 Y141.666 E0.02843
M73 Q1 S43
G1 X118.884 Y142.756 E0.04718
G1 X117.615 Y143.461 E0.04551
G1 X116.662 Y143.689 E0.03072
G1 X116.264 Y143.702 E0.01249
G1 X115.925 Y144.730 E0.03393
G1 X115.463 Y145.509 E0.02842
G1 X114.699 Y146.323 E0.03499
G1 X114.078 Y146.809 E0.02475
G1 X112.113 Y147.459 E0.06488
G1 X111.271 Y147.446 E0.02641
G1 X111.018 Y147.473 E0.00797
G1 X106.583 Y147.473 E0.13905
G1 X105.978 Y147.448 E0.01898
G1 X105.739 Y147.473 E0.00755
G1 X104.291 Y147.473 E0.04540
G1 X104.035 Y147.446 E0.00805
G1 X103.223 Y147.449 E0.02548
G1 X102.476 Y147.334 E0.02369
G1 X101.172 Y146.757 E0.04471
G1 X100.092 Y145.808 E0.04506
G1 X99.362 Y144.679 E0.04216
G1 X99.001 Y143.398 E0.04174
G1 X98.981 Y129.266 E0.44310
G1 X99.345 Y127.825 E0.04659
G1 X99.880 Y126.859 E0.03463
G1 X101.249 Y125.562 E0.05911
G1 X102.219 Y125.087 E0.03387
G1 X103.331 Y124.835 E0.03574
G1 X111.172 Y124.823 E0.24588
G1 X111.676 Y124.334 E0.02201
G1 X112.427 Y123.686 E0.03108
G1 X113.146 Y123.122 E0.02866
G1 X113.880 Y122.600 E0.02824
G1 X114.354 Y122.303 E0.01755
G1 X117.037 Y87.710 E1.08791
G1 X116.554 Y87.257 E0.02074
G1 X115.988 Y86.634 E0.02640
G1 X115.453 Y85.955 E0.02710
G1 X114.929 Y85.173 E0.02952
G1 X114.507 Y84.423 E0.02698
G1 X114.141 Y83.646 E0.02692
G1 X113.828 Y82.837 E0.02719
G1 X113.569 Y81.980 E0.02809
G1 X113.382 Y81.135 E0.02712
G1 X113.258 Y80.276 E0.02722
G1 X113.194 Y79.396 E0.02767
G1 X113.198 Y78.496 E0.02822
G1 X113.282 Y77.511 E0.03100
G1 X113.448 Y76.531 E0.03114
G1 X113.718 Y75.497 E0.03353
G1 X114.114 Y74.413 E0.03617
G1 X114.543 Y73.508 E0.03141
G1 X115.008 Y72.698 E0.02926
G1 X115.591 Y71.856 E0.03212
G1 X116.428 Y70.870 E0.04056
G1 X117.266 Y70.069 E0.03635
G1 X118.173 Y69.358 E0.03611
G1 X119.071 Y68.782 E0.03346
G1 X120.017 Y68.288 E0.03348
G1 X121.203 Y67.812 E0.04007
G1 X122.253 Y67.510 E0.03425
G1 X123.343 Y67.302 E0.03480
G1 X124.491 Y67.197 E0.03615
G1 X125.498 Y67.197 E0.03157
G1 X126.522 Y67.284 E0.03223
G1 X127.530 Y67.460 E0.03208
G1 X128.419 Y67.694 E0.02882
G1 X129.297 Y67.995 E0.02912
G1 X130.032 Y68.312 E0.02509
G1 X131.032 Y68.842 E0.03547
G1 X131.991 Y69.476 E0.03606
G1 X132.879 Y70.197 E0.03587
G1 X133.650 Y70.953 E0.03385
G1 X134.343 Y71.769 E0.03355
G1 X135.019 Y72.740 E0.03710
G1 X135.470 Y73.534 E0.02865
G1 X135.886 Y74.414 E0.03050
G1 X136.266 Y75.446 E0.03447
G1 X136.553 Y76.536 E0.03535
G1 X136.726 Y77.577 E0.03309
G1 X136.802 Y78.498 E0.02897
G1 X136.805 Y79.442 E0.02962
M73 Q2 S43
G1 X136.737 Y80.317 E0.02749
M73 P2 R43
G1 X136.613 Y81.162 E0.02680
G1 X136.431 Y81.979 E0.02624
G1 X136.172 Y82.837 E0.02809
G1 X135.859 Y83.645 E0.02716
G1 X135.495 Y84.420 E0.02684
G1 X135.089 Y85.144 E0.02606
G1 X134.530 Y85.980 E0.03151
G1 X134.020 Y86.625 E0.02580
G1 X133.464 Y87.238 E0.02593
G1 X132.963 Y87.709 E0.02157
G1 X135.646 Y122.303 E1.08793
G1 X136.120 Y122.600 E0.01755
G1 X136.854 Y123.122 E0.02824
G1 X137.573 Y123.686 E0.02866
G1 X138.324 Y124.334 E0.03108
G1 X138.828 Y124.823 E0.02201
G1 X146.737 Y124.838 E0.24801
G1 X148.712 Y125.525 E0.06554
G1 X149.395 Y126.064 E0.02730
G1 X150.134 Y126.882 E0.03455
G1 X150.698 Y127.931 E0.03734
G1 X151.019 Y129.265 E0.04303
G1 X151.019 Y143.141 E0.43507
G1 X150.909 Y143.923 E0.02476
G1 X150.315 Y145.273 E0.04622
G1 X149.329 Y146.388 E0.04667
G1 X148.202 Y147.088 E0.04161
G1 X147.303 Y147.383 E0.02966
G1 X146.008 Y147.441 E0.04065
G1 X145.710 Y147.473 E0.00939
G1 X138.105 Y147.473 E0.23844
G1 X136.608 Y147.081 E0.04852
G1 X135.550 Y146.441 E0.03877
G1 X134.669 Y145.562 E0.03902
G1 X133.946 Y144.239 E0.04727
G1 X133.824 Y143.755 E0.01565
G1 X134.111 Y143.324 F10800.000
G1 F1200.000
G1 X133.337 Y143.310 E0.02425
G1 X132.447 Y143.081 E0.02882
G1 X131.407 Y142.504 E0.03730
G1 X130.465 Y141.554 E0.04195
G1 X130.000 Y140.754 E0.02902
G1 X129.761 Y140.065 E0.02285
G1 X129.638 Y138.550 E0.04767
