; generated by PrusaSlicer 2.3.1+linux-x64 on 2021-05-27 at 10:34:57 UTC

; 

; external perimeters extrusion width = 0.45mm
; perimeters extrusion width = 0.45mm
; infill extrusion width = 0.45mm
; solid infill extrusion width = 0.45mm
; top infill extrusion width = 0.40mm
; support material extrusion width = 0.35mm
; first layer extrusion width = 0.42mm

M73 P0 R39
M73 Q0 S39
M201 X1000 Y1000 Z200 E5000 ; sets maximum accelerations, mm/sec^2
M203 X200 Y200 Z12 E120 ; sets maximum feedrates, mm/sec
M204 P1250 R1250 T1250 ; sets acceleration (P, T) and retract acceleration (R), mm/sec^2
M205 X8.00 Y8.00 Z0.40 E4.50 ; sets the jerk limits, mm/sec
M205 S0 T0 ; sets the minimum extruding and travel feed rate, mm/sec
M107
;TYPE:Custom
M862.3 P "MK3S" ; printer model check
M862.1 P0.4 ; nozzle diameter check
M115 U3.9.3 ; tell printer latest fw version
G90 ; use absolute coordinates
M83 ; extruder relative mode
M104 S205 ; set extruder temp
M140 S70 ; set bed temp
M190 S70 ; wait for bed temp
M109 S205 ; wait for extruder temp
G28 W ; home all without mesh bed level
G80 ; mesh bed leveling
G1 Y-3.0 F1000.0 ; go outside print area
G92 E0.0
G1 X60.0 E9.0 F1000.0 ; intro line
G1 X100.0 E12.5 F1000.0 ; intro line
G92 E0.0
M221 S95

; Don't change E values below. Excessive value can damage the printer.
M907 E430 ; set extruder motor current
G21 ; set units to millimeters
G90 ; use absolute coordinates
M83 ; use relative distances for extrusion
M900 K0.05 ; Filament gcode LA 1.5
M900 K30 ; Filament gcode LA 1.0
;LAYER_CHANGE
;Z:0.2
;HEIGHT:0.2
;BEFORE_LAYER_CHANGE
G92 E0.0
;0.2


G1 E-0.80000 F2100.000
G1 Z0.400 F10800.000
;AFTER_LAYER_CHANGE
;0.2
G1 X166.752 Y96.726
G1 Z0.200
G1 E0.80000 F2100.000
M204 S1000
;TYPE:Skirt
;WIDTH:0.42
G1 F1200.000
G1 X167.316 Y95.934 E0.03051
G1 X168.299 Y95.019 E0.04210
G1 X169.200 Y94.541 E0.03199
G1 X170.247 Y94.237 E0.03416
G1 X179.247 Y94.218 E0.28221
G1 X180.153 Y94.429 E0.02917
G1 X181.005 Y94.807 E0.02923
G1 X182.165 Y95.746 E0.04678
G1 X182.964 Y96.892 E0.04378
G1 X183.411 Y98.288 E0.04597
G1 X183.457 Y111.404 E0.41125
G1 X182.885 Y113.273 E0.06129
G1 X182.321 Y114.067 E0.03053
G1 X181.251 Y115.041 E0.04537
G1 X180.333 Y115.499 E0.03217
G1 X179.111 Y115.802 E0.03947
G1 X170.587 Y115.813 E0.26725
G1 X168.720 Y115.241 E0.06123
G1 X167.927 Y114.677 E0.03053
G1 X166.952 Y113.607 E0.04537
G1 X166.495 Y112.688 E0.03218
G1 X166.180 Y111.376 E0.04231
G1 X166.180 Y98.594 E0.40080
G1 X166.735 Y96.784 E0.05935
G1 X167.095 Y96.896 F10800.000
G1 F1200.000
G1 X167.586 Y96.197 E0.02678
G1 X168.537 Y95.313 E0.04072
G1 X169.357 Y94.884 E0.02902
G1 X170.325 Y94.607 E0.03156
G1 X179.184 Y94.590 E0.27777
G1 X180.017 Y94.782 E0.02681
G1 X180.829 Y95.142 E0.02784
G1 X181.905 Y96.021 E0.04357
G1 X182.637 Y97.082 E0.04040
G1 X183.042 Y98.374 E0.04245
G1 X183.080 Y111.376 E0.40769
G1 X182.535 Y113.132 E0.05763
G1 X182.051 Y113.802 E0.02592
G1 X181.058 Y114.717 E0.04235
G1 X180.221 Y115.138 E0.02937
G1 X179.042 Y115.431 E0.03808
G1 X170.616 Y115.436 E0.26420
G1 X168.862 Y114.891 E0.05759
G1 X168.191 Y114.408 E0.02592
G1 X167.277 Y113.414 E0.04235
G1 X166.856 Y112.578 E0.02935
G1 X166.557 Y111.353 E0.03951
G1 X166.557 Y98.622 E0.39917
G1 X167.077 Y96.953 E0.05482
G1 X167.453 Y97.013 F10800.000
G1 F1200.000
G1 X167.856 Y96.462 E0.02140
G1 X168.775 Y95.607 E0.03935
G1 X169.512 Y95.228 E0.02599
G1 X170.402 Y94.976 E0.02901
G1 X179.121 Y94.962 E0.27335
G1 X179.914 Y95.145 E0.02554
G1 X180.651 Y95.475 E0.02531
G1 X181.644 Y96.294 E0.04036
G1 X182.309 Y97.270 E0.03701
G1 X182.674 Y98.457 E0.03895
G1 X182.703 Y111.347 E0.40417
G1 X182.185 Y112.987 E0.05393
G1 X181.782 Y113.538 E0.02140
G1 X180.862 Y114.393 E0.03937
G1 X180.109 Y114.777 E0.02651
G1 X178.974 Y115.059 E0.03667
G1 X170.646 Y115.059 E0.26113
G1 X169.006 Y114.541 E0.05391
G1 X168.455 Y114.138 E0.02140
G1 X167.600 Y113.218 E0.03937
G1 X167.216 Y112.465 E0.02651
G1 X166.934 Y111.330 E0.03667
G1 X166.934 Y98.652 E0.39752
G1 X167.435 Y97.070 E0.05203
G1 X167.776 Y97.209 F10800.000
G1 F1200.000
G1 X168.128 Y96.723 E0.01879
G1 X168.972 Y95.929 E0.03635
G1 X169.634 Y95.586 E0.02336
G1 X170.480 Y95.346 E0.02758
G1 X179.059 Y95.335 E0.26897
G1 X179.778 Y95.497 E0.02312
G1 X180.473 Y95.808 E0.02388
G1 X181.381 Y96.566 E0.03709
G1 X181.979 Y97.455 E0.03361
G1 X182.304 Y98.538 E0.03546
G1 X182.326 Y111.319 E0.40073
G1 X181.861 Y112.791 E0.04840
G1 X181.510 Y113.277 E0.01879
G1 X180.665 Y114.071 E0.03636
G1 X179.994 Y114.417 E0.02367
G1 X178.950 Y114.682 E0.03378
G1 X170.674 Y114.682 E0.25947
G1 X169.202 Y114.218 E0.04840
G1 X168.717 Y113.866 E0.01879
G1 X167.923 Y113.021 E0.03636
G1 X167.576 Y112.350 E0.02367
G1 X167.312 Y111.306 E0.03378
G1 X167.312 Y98.681 E0.39586
G1 X167.758 Y97.266 E0.04651
G1 X168.100 Y97.404 F10800.000
G1 F1200.000
G1 X168.401 Y96.984 E0.01620
G1 X169.172 Y96.250 E0.03336
G1 X169.756 Y95.943 E0.02068
G1 X170.558 Y95.716 E0.02614
G1 X178.996 Y95.707 E0.26458
G1 X179.676 Y95.860 E0.02184
G1 X180.292 Y96.140 E0.02124
G1 X181.117 Y96.836 E0.03381
G1 X181.649 Y97.639 E0.03020
G1 X181.935 Y98.618 E0.03198
G1 X181.949 Y111.291 E0.39734
G1 X181.537 Y112.596 E0.04293
G1 X181.236 Y113.016 E0.01620
G1 X180.466 Y113.750 E0.03336
G1 X179.878 Y114.058 E0.02082
G1 X178.925 Y114.305 E0.03084
G1 X170.703 Y114.305 E0.25780
G1 X169.397 Y113.894 E0.04293
G1 X168.977 Y113.593 E0.01620
G1 X168.244 Y112.822 E0.03336
G1 X167.936 Y112.234 E0.02082
G1 X167.689 Y111.282 E0.03084
G1 X167.689 Y98.709 E0.39419
M73 P1 R39
M73 Q1 S39
G1 X168.082 Y97.461 E0.04105
G1 X168.425 Y97.597 F10800.000
G1 F1200.000
G1 X168.677 Y97.242 E0.01364
G1 X169.373 Y96.570 E0.03036
G1 X169.878 Y96.300 E0.01794
G1 X170.635 Y96.086 E0.02467
G1 X178.936 Y96.080 E0.26025
G1 X179.538 Y96.212 E0.01934
G1 X180.112 Y96.472 E0.01975
G1 X180.850 Y97.104 E0.03047
G1 X181.317 Y97.820 E0.02679
G1 X181.565 Y98.695 E0.02853
G1 X181.572 Y111.262 E0.39403
G1 X181.212 Y112.403 E0.03752
G1 X180.961 Y112.758 E0.01364
G1 X180.264 Y113.430 E0.03036
G1 X179.759 Y113.700 E0.01797
G1 X178.900 Y113.928 E0.02784
G1 X170.732 Y113.928 E0.25611
G1 X169.591 Y113.569 E0.03752
G1 X169.236 Y113.317 E0.01364
G1 X168.564 Y112.620 E0.03036
G1 X168.294 Y112.115 E0.01797
G1 X168.066 Y111.257 E0.02784
G1 X168.066 Y98.738 E0.39250
G1 X168.407 Y97.654 E0.03564
G1 X168.751 Y97.788 F10800.000
G1 F1200.000
G1 X168.954 Y97.498 E0.01110
G1 X169.578 Y96.888 E0.02736
G1 X170.002 Y96.657 E0.01514
G1 X170.713 Y96.456 E0.02317
G1 X178.877 Y96.453 E0.25599
G1 X179.401 Y96.564 E0.01680
G1 X179.930 Y96.804 E0.01821
G1 X180.582 Y97.370 E0.02705
G1 X180.983 Y97.997 E0.02336
G1 X181.195 Y98.769 E0.02510
G1 X181.195 Y111.233 E0.39079
G1 X180.887 Y112.212 E0.03217
G1 X180.684 Y112.502 E0.01110
G1 X180.060 Y113.112 E0.02736
G1 X179.637 Y113.342 E0.01511
G1 X178.874 Y113.551 E0.02478
G1 X170.761 Y113.551 E0.25440
G1 X169.782 Y113.243 E0.03217
G1 X169.492 Y113.040 E0.01110
G1 X168.881 Y112.416 E0.02736
G1 X168.651 Y111.993 E0.01511
G1 X168.443 Y111.231 E0.02478
G1 X168.443 Y98.767 E0.39079
M73 P1 R38
G1 X168.733 Y97.846 E0.03029
G1 X169.078 Y97.978 F10800.000
G1 F1200.000
G1 X169.233 Y97.752 E0.00859
G1 X169.785 Y97.204 E0.02439
G1 X170.126 Y97.014 E0.01225
G1 X170.790 Y96.826 E0.02164
G1 X178.856 Y96.830 E0.25289
G1 X179.299 Y96.927 E0.01423
G1 X179.746 Y97.134 E0.01543
G1 X180.312 Y97.634 E0.02369
G1 X180.628 Y98.128 E0.01837
G1 X180.818 Y98.796 E0.02179
G1 X180.818 Y111.204 E0.38904
G1 X180.560 Y112.022 E0.02690
G1 X180.405 Y112.248 E0.00859
G1 X179.853 Y112.796 E0.02439
G1 X179.511 Y112.986 E0.01225
G1 X178.848 Y113.174 E0.02163
G1 X170.790 Y113.174 E0.25265
G1 X169.972 Y112.916 E0.02690
G1 X169.746 Y112.761 E0.00859
G1 X169.197 Y112.209 E0.02439
G1 X169.008 Y111.868 E0.01225
G1 X168.820 Y111.204 E0.02163
G1 X168.820 Y98.796 E0.38904
G1 X169.060 Y98.035 E0.02501
G1 X169.406 Y98.165 F10800.000
G1 F1200.000
G1 X169.515 Y98.003 E0.00610
G1 X169.996 Y97.517 E0.02143
G1 X170.256 Y97.369 E0.00939
G1 X170.818 Y97.203 E0.01839
G1 X178.833 Y97.207 E0.25131
G1 X179.193 Y97.290 E0.01157
G1 X179.558 Y97.462 E0.01267
G1 X180.040 Y97.897 E0.02036
G1 X180.275 Y98.261 E0.01357
G1 X180.441 Y98.824 E0.01841
G1 X180.441 Y111.175 E0.38724
G1 X180.231 Y111.835 E0.02172
G1 X180.123 Y111.997 E0.00610
G1 X179.642 Y112.483 E0.02143
G1 X179.382 Y112.631 E0.00939
G1 X178.820 Y112.797 E0.01838
G1 X170.819 Y112.797 E0.25085
G1 X170.159 Y112.587 E0.02172
G1 X169.997 Y112.479 E0.00610
G1 X169.511 Y111.998 E0.02143
G1 X169.362 Y111.738 E0.00939
G1 X169.197 Y111.176 E0.01838
G1 X169.197 Y98.825 E0.38724
G1 X169.388 Y98.222 E0.01984
G1 X169.737 Y98.348 F10800.000
G1 F1200.000
G1 X169.800 Y98.251 E0.00362
G1 X170.211 Y97.828 E0.01851
G1 X170.391 Y97.721 E0.00654
G1 X170.848 Y97.580 E0.01500
G1 X178.812 Y97.584 E0.24970
G1 X179.050 Y97.639 E0.00767
G1 X179.370 Y97.791 E0.01110
G1 X179.767 Y98.157 E0.01694
G1 X179.923 Y98.398 E0.00901
G1 X180.064 Y98.854 E0.01495
G1 X180.064 Y111.145 E0.38539
G1 X179.901 Y111.652 E0.01670
G1 X179.838 Y111.749 E0.00362
G1 X179.427 Y112.172 E0.01851
G1 X179.247 Y112.279 E0.00654
G1 X178.790 Y112.420 E0.01500
G1 X170.849 Y112.420 E0.24900
G1 X170.342 Y112.257 E0.01670
G1 X170.245 Y112.194 E0.00362
G1 X169.821 Y111.783 E0.01851
G1 X169.715 Y111.603 E0.00654
G1 X169.574 Y111.146 E0.01500
G1 X169.574 Y98.855 E0.38539
G1 X169.718 Y98.405 E0.01481
G1 X170.533 Y98.071 F10800.000
G1 F1200.000
G1 X170.879 Y97.957 E0.01143
G1 X178.789 Y97.961 E0.24802
G1 X178.906 Y97.988 E0.00377
G1 X179.180 Y98.118 E0.00949
G1 X179.490 Y98.414 E0.01344
G1 X179.573 Y98.541 E0.00477
G1 X179.686 Y98.886 E0.01136
G1 X179.686 Y111.114 E0.38343
G1 X179.549 Y111.506 E0.01302
G1 X179.205 Y111.867 E0.01561
G1 X179.105 Y111.929 E0.00371
G1 X178.758 Y112.043 E0.01143
G1 X170.879 Y112.043 E0.24704
G1 X170.488 Y111.905 E0.01302
G1 X170.127 Y111.562 E0.01561
G1 X170.065 Y111.461 E0.00371
G1 X169.951 Y111.114 E0.01143
G1 X169.951 Y98.886 E0.38343
G1 X170.089 Y98.494 E0.01302
G1 X170.432 Y98.133 E0.01561
G1 X170.482 Y98.103 E0.00183
G1 X170.687 Y98.416 F10800.000
G1 F1200.000
G1 X170.914 Y98.334 E0.00757
G1 X178.737 Y98.334 E0.24528
G1 X178.988 Y98.444 E0.00856
G1 X179.228 Y98.693 E0.01086
G1 X179.309 Y98.921 E0.00757
G1 X179.309 Y111.079 E0.38123
G1 X179.233 Y111.292 E0.00708
G1 X178.951 Y111.584 E0.01275
G1 X178.723 Y111.666 E0.00757
G1 X170.914 Y111.666 E0.24484
G1 X170.702 Y111.590 E0.00708
G1 X170.410 Y111.307 E0.01275
G1 X170.328 Y111.079 E0.00757
G1 X170.328 Y98.921 E0.38123
G1 X170.404 Y98.708 E0.00708
G1 X170.642 Y98.455 E0.01089
G1 X170.887 Y98.740 F10800.000
G1 F1200.000
G1 X170.956 Y98.711 E0.00235
G1 X178.681 Y98.711 E0.24221
G1 X178.751 Y98.740 E0.00235
G1 X178.904 Y98.893 E0.00679
G1 X178.932 Y98.962 E0.00235
G1 X178.932 Y111.038 E0.37860
G1 X178.904 Y111.107 E0.00235
G1 X178.751 Y111.260 E0.00679
G1 X178.681 Y111.289 E0.00235
G1 X170.956 Y111.289 E0.24221
G1 X170.887 Y111.260 E0.00235
G1 X170.734 Y111.107 E0.00679
G1 X170.705 Y111.038 E0.00235
G1 X170.705 Y98.962 E0.37860
G1 X170.734 Y98.893 E0.00235
G1 X170.845 Y98.783 E0.00490
;WIPE_START
G1 F8640.000
G1 X170.956 Y98.711 E-0.03058
G1 X174.115 Y98.711 E-0.72942
;WIPE_END
G1 E-0.04000 F2100.000
G1 Z0.600 F10800.000
G1 X140.979 Y95.290
M73 Q1 S38
G1 Z0.200
G1 E0.80000 F2100.000
G1 F1200.000
G1 X142.278 Y95.295 E0.04073
G1 X143.655 Y95.495 E0.04363
G1 X145.109 Y96.054 E0.04886
G1 X146.365 Y96.900 E0.04748
G1 X147.316 Y97.901 E0.04330
G1 X148.028 Y99.046 E0.04226
G1 X148.546 Y100.516 E0.04889
G1 X148.708 Y101.791 E0.04030
G1 X148.691 Y108.478 E0.20964
G1 X148.529 Y109.564 E0.03443
G1 X148.196 Y110.587 E0.03375
G1 X147.506 Y111.841 E0.04486
G1 X146.456 Y113.021 E0.04954
G1 X145.161 Y113.923 E0.04947
G1 X143.572 Y114.525 E0.05330
G1 X142.160 Y114.712 E0.04465
G1 X140.751 Y114.714 E0.04417
G1 X140.261 Y115.512 E0.02937
G1 X139.504 Y116.276 E0.03373
G1 X139.384 Y116.681 E0.01323
G1 X138.756 Y117.817 E0.04070
G1 X137.362 Y119.099 E0.05939
G1 X136.574 Y119.471 E0.02733
G1 X135.259 Y119.788 E0.04240
G1 X115.524 Y119.776 E0.61879
M73 P2 R38
M73 Q2 S38
G1 X114.820 Y119.790 E0.02208
G1 X114.003 Y119.690 E0.02580
G1 X112.532 Y119.075 E0.04999
G1 X111.267 Y117.948 E0.05314
G1 X110.534 Y116.680 E0.04592
G1 X110.469 Y116.488 E0.00634
G1 X110.346 Y116.395 E0.00483
G1 X109.406 Y115.388 E0.04320
G1 X109.018 Y114.711 E0.02447
G1 X107.732 Y114.705 E0.04033
G1 X106.481 Y114.539 E0.03956
G1 X105.097 Y114.053 E0.04601
G1 X103.722 Y113.175 E0.05115
G1 X102.843 Y112.299 E0.03890
G1 X102.137 Y111.272 E0.03908
G1 X101.522 Y109.759 E0.05121
G1 X101.286 Y108.149 E0.05102
G1 X101.299 Y101.682 E0.20274
G1 X101.534 Y100.195 E0.04723
G1 X102.079 Y98.836 E0.04589
G1 X102.796 Y97.759 E0.04057
G1 X103.721 Y96.826 E0.04120
G1 X105.136 Y95.929 E0.05253
G1 X106.481 Y95.461 E0.04466
G1 X107.756 Y95.293 E0.04032
G1 X109.247 Y95.289 E0.04675
G1 X109.739 Y94.488 E0.02947
G1 X110.496 Y93.724 E0.03373
G1 X110.616 Y93.319 E0.01323
G1 X111.244 Y92.183 E0.04070
G1 X112.638 Y90.901 E0.05939
G1 X113.426 Y90.529 E0.02733
G1 X114.741 Y90.212 E0.04240
G1 X135.430 Y90.220 E0.64869
G1 X137.230 Y90.780 E0.05912
G1 X137.960 Y91.283 E0.02779
G1 X138.742 Y92.057 E0.03449
G1 X139.464 Y93.316 E0.04549
G1 X139.523 Y93.489 E0.00575
G1 X140.510 Y94.495 E0.04418
G1 X140.948 Y95.238 E0.02705
G1 X140.761 Y95.666 F10800.000
G1 F1200.000
G1 X142.238 Y95.670 E0.04633
G1 X143.541 Y95.855 E0.04125
G1 X144.918 Y96.379 E0.04620
G1 X146.107 Y97.175 E0.04487
G1 X147.006 Y98.117 E0.04083
G1 X147.697 Y99.227 E0.04098
G1 X148.183 Y100.621 E0.04630
G1 X148.333 Y101.826 E0.03805
G1 X148.316 Y108.436 E0.20727
G1 X148.165 Y109.462 E0.03252
G1 X147.843 Y110.454 E0.03267
G1 X147.187 Y111.639 E0.04248
G1 X146.190 Y112.753 E0.04688
G1 X145.005 Y113.579 E0.04529
G1 X143.500 Y114.154 E0.05051
G1 X142.123 Y114.336 E0.04356
G1 X140.494 Y114.336 E0.05107
G1 X140.408 Y114.551 E0.00723
G1 X139.978 Y115.263 E0.02610
G1 X139.167 Y116.080 E0.03610
G1 X139.042 Y116.521 E0.01435
G1 X138.476 Y117.562 E0.03716
G1 X137.173 Y118.772 E0.05575
G1 X136.464 Y119.110 E0.02462
G1 X135.236 Y119.411 E0.03965
G1 X115.520 Y119.399 E0.61818
G1 X114.826 Y119.412 E0.02177
G1 X114.076 Y119.319 E0.02370
G1 X112.709 Y118.741 E0.04655
G1 X111.542 Y117.689 E0.04924
G1 X110.874 Y116.513 E0.04241
G1 X110.792 Y116.251 E0.00862
G1 X110.606 Y116.121 E0.00711
G1 X109.697 Y115.148 E0.04174
G1 X109.241 Y114.334 E0.02926
G1 X107.770 Y114.330 E0.04612
G1 X106.550 Y114.168 E0.03857
G1 X105.281 Y113.723 E0.04218
G1 X103.973 Y112.893 E0.04854
G1 X103.122 Y112.044 E0.03769
G1 X102.459 Y111.076 E0.03680
G1 X101.891 Y109.681 E0.04721
G1 X101.664 Y108.135 E0.04900
G1 X101.674 Y101.726 E0.20096
G1 X101.892 Y100.315 E0.04477
G1 X102.422 Y98.995 E0.04458
G1 X103.099 Y97.985 E0.03814
G1 X103.973 Y97.108 E0.03882
G1 X105.318 Y96.259 E0.04988
G1 X106.550 Y95.832 E0.04086
G1 X107.770 Y95.670 E0.03858
G1 X109.505 Y95.665 E0.05443
G1 X109.592 Y95.449 E0.00729
G1 X110.022 Y94.737 E0.02610
G1 X110.833 Y93.920 E0.03610
G1 X110.958 Y93.479 E0.01435
G1 X111.524 Y92.438 E0.03716
G1 X112.827 Y91.228 E0.05575
G1 X113.536 Y90.890 E0.02462
G1 X114.764 Y90.589 E0.03965
G1 X135.400 Y90.597 E0.64704
G1 X137.088 Y91.130 E0.05550
G1 X137.707 Y91.564 E0.02369
G1 X138.428 Y92.268 E0.03160
G1 X139.125 Y93.483 E0.04390
G1 X139.203 Y93.739 E0.00841
G1 X139.349 Y93.842 E0.00560
G1 X140.223 Y94.740 E0.03929
G1 X140.730 Y95.614 E0.03170
;WIPE_START
G1 F8640.000
G1 X142.238 Y95.670 E-0.34838
G1 X143.541 Y95.855 E-0.30375
G1 X143.977 Y96.021 E-0.10787
;WIPE_END
G1 E-0.04000 F2100.000
G1 Z0.600 F10800.000
G1 X138.876 Y93.979
G1 Z0.200
G1 E0.80000 F2100.000
G1 F1200.000
G1 X139.096 Y94.122 E0.00821
G1 X139.937 Y94.987 E0.03782
G1 X140.340 Y95.678 E0.02510
G1 X140.477 Y96.043 E0.01222
G1 X142.200 Y96.046 E0.05400
G1 X143.428 Y96.215 E0.03887
G1 X144.727 Y96.705 E0.04355
G1 X145.850 Y97.452 E0.04227
G1 X146.697 Y98.335 E0.03837
G1 X147.348 Y99.371 E0.03838
G1 X147.821 Y100.726 E0.04498
G1 X147.957 Y101.859 E0.03578
G1 X147.941 Y108.395 E0.20492
G1 X147.794 Y109.391 E0.03159
G1 X147.491 Y110.319 E0.03060
G1 X146.868 Y111.437 E0.04014
G1 X145.955 Y112.457 E0.04292
