; generated by PrusaSlicer 2.3.1+linux-x64 on 2021-05-28 at 17:39:25 UTC

; 

; external perimeters extrusion width = 0.45mm
; perimeters extrusion width = 0.45mm
; infill extrusion width = 0.45mm
; solid infill extrusion width = 0.45mm
; top infill extrusion width = 0.40mm
; support material extrusion width = 0.35mm
; first layer extrusion width = 0.42mm

M73 P0 R28
M73 Q0 S28
M201 X1000 Y1000 Z200 E5000 ; sets maximum accelerations, mm/sec^2
M203 X200 Y200 Z12 E120 ; sets maximum feedrates, mm/sec
M204 P1250 R1250 T1250 ; sets acceleration (P, T) and retract acceleration (R), mm/sec^2
M205 X8.00 Y8.00 Z0.40 E4.50 ; sets the jerk limits, mm/sec
M205 S0 T0 ; sets the minimum extruding and travel feed rate, mm/sec
M107
;TYPE:Custom
M862.3 P "MK3S" ; printer model check
M862.1 P0.4 ; nozzle diameter check
M115 U3.9.3 ; tell printer latest fw version
G90 ; use absolute coordinates
M83 ; extruder relative mode
M104 S205 ; set extruder temp
M140 S70 ; set bed temp
M190 S70 ; wait for bed temp
M109 S205 ; wait for extruder temp
G28 W ; home all without mesh bed level
G80 ; mesh bed leveling
G1 Y-3.0 F1000.0 ; go outside print area
G92 E0.0
G1 X60.0 E9.0 F1000.0 ; intro line
G1 X100.0 E12.5 F1000.0 ; intro line
G92 E0.0
M221 S95

; Don't change E values below. Excessive value can damage the printer.
M907 E430 ; set extruder motor current
G21 ; set units to millimeters
G90 ; use absolute coordinates
M83 ; use relative distances for extrusion
M900 K0.05 ; Filament gcode LA 1.5
M900 K30 ; Filament gcode LA 1.0
;LAYER_CHANGE
;Z:0.2
;HEIGHT:0.2
;BEFORE_LAYER_CHANGE
G92 E0.0
;0.2


G1 E-0.80000 F2100.000
G1 Z0.400 F10800.000
;AFTER_LAYER_CHANGE
;0.2
G1 X137.575 Y114.644
M73 P0 R27
G1 Z0.200
G1 E0.80000 F2100.000
M204 S1000
;TYPE:Skirt
;WIDTH:0.42
G1 F1200.000
G1 X137.584 Y114.844 E0.00626
G1 X138.254 Y116.110 E0.04494
G1 X138.579 Y116.832 E0.02482
G1 X138.855 Y117.546 E0.02398
G1 X139.086 Y118.246 E0.02312
G1 X139.280 Y118.953 E0.02299
G1 X139.438 Y119.664 E0.02283
G1 X139.560 Y120.376 E0.02266
G1 X139.652 Y121.151 E0.02449
G1 X139.698 Y121.830 E0.02133
G1 X139.713 Y122.511 E0.02136
G1 X139.692 Y123.284 E0.02424
G1 X139.630 Y124.064 E0.02454
G1 X139.541 Y124.741 E0.02141
G1 X139.422 Y125.414 E0.02141
G1 X139.235 Y126.220 E0.02597
G1 X139.050 Y126.866 E0.02105
G1 X138.836 Y127.503 E0.02107
G1 X138.530 Y128.280 E0.02619
G1 X138.211 Y128.975 E0.02396
G1 X137.884 Y129.604 E0.02224
G1 X137.526 Y130.217 E0.02228
G1 X137.119 Y130.841 E0.02333
G1 X136.675 Y131.452 E0.02369
G1 X136.209 Y132.029 E0.02326
G1 X135.736 Y132.559 E0.02226
G1 X135.230 Y133.073 E0.02263
G1 X134.678 Y133.581 E0.02351
G1 X134.162 Y134.010 E0.02105
G1 X133.627 Y134.417 E0.02106
G1 X132.963 Y134.870 E0.02521
G1 X132.281 Y135.283 E0.02500
G1 X131.638 Y135.629 E0.02289
G1 X131.033 Y135.917 E0.02102
G1 X130.415 Y136.179 E0.02105
G1 X129.670 Y136.450 E0.02485
G1 X128.912 Y136.682 E0.02485
G1 X128.262 Y136.845 E0.02101
G1 X127.614 Y136.977 E0.02074
G1 X126.811 Y137.099 E0.02547
G1 X126.042 Y137.174 E0.02422
G1 X125.362 Y137.207 E0.02136
G1 X124.690 Y137.208 E0.02105
G1 X123.973 Y137.175 E0.02252
G1 X123.245 Y137.106 E0.02292
G1 X122.509 Y136.999 E0.02331
G1 X121.780 Y136.854 E0.02332
G1 X121.058 Y136.673 E0.02332
G1 X120.307 Y136.443 E0.02464
G1 X119.574 Y136.174 E0.02449
G1 X118.957 Y135.913 E0.02100
G1 X118.360 Y135.628 E0.02075
G1 X117.662 Y135.251 E0.02485
G1 X116.991 Y134.841 E0.02466
G1 X116.403 Y134.438 E0.02236
G1 X115.860 Y134.028 E0.02132
G1 X115.301 Y133.562 E0.02283
G1 X114.725 Y133.029 E0.02461
G1 X114.205 Y132.495 E0.02336
G1 X113.708 Y131.930 E0.02359
G1 X113.247 Y131.349 E0.02326
G1 X112.832 Y130.770 E0.02232
G1 X112.446 Y130.170 E0.02238
M73 Q0 S27
G1 X112.062 Y129.505 E0.02409
G1 X111.752 Y128.900 E0.02130
G1 X111.473 Y128.287 E0.02112
G1 X111.165 Y127.505 E0.02637
G1 X110.951 Y126.869 E0.02103
G1 X110.768 Y126.232 E0.02078
G1 X110.574 Y125.392 E0.02704
G1 X110.458 Y124.739 E0.02078
G1 X110.371 Y124.075 E0.02101
G1 X110.308 Y123.295 E0.02452
G1 X110.287 Y122.508 E0.02470
G1 X110.306 Y121.748 E0.02384
G1 X110.355 Y121.079 E0.02101
G1 X110.435 Y120.412 E0.02108
G1 X110.571 Y119.621 E0.02516
G1 X110.729 Y118.918 E0.02260
G1 X110.918 Y118.233 E0.02229
G1 X111.156 Y117.516 E0.02367
G1 X111.420 Y116.834 E0.02293
G1 X111.726 Y116.151 E0.02347
G1 X112.415 Y114.847 E0.04624
G1 X112.423 Y114.635 E0.00666
G1 X112.249 Y114.412 E0.00886
G1 X102.197 Y104.360 E0.44574
G1 X101.732 Y103.869 E0.02118
G1 X101.281 Y103.347 E0.02165
G1 X100.790 Y102.717 E0.02503
G1 X100.400 Y102.160 E0.02132
G1 X100.027 Y101.570 E0.02189
G1 X99.623 Y100.854 E0.02577
G1 X99.311 Y100.226 E0.02199
G1 X99.021 Y99.563 E0.02270
G1 X98.773 Y98.912 E0.02184
G1 X98.555 Y98.246 E0.02197
G1 X98.337 Y97.444 E0.02606
G1 X98.190 Y96.760 E0.02194
G1 X98.074 Y96.063 E0.02216
G1 X97.992 Y95.370 E0.02187
G1 X97.944 Y94.681 E0.02166
G1 X97.929 Y93.831 E0.02665
G1 X97.952 Y93.161 E0.02101
G1 X98.005 Y92.494 E0.02100
G1 X98.113 Y91.672 E0.02597
G1 X98.236 Y91.003 E0.02134
G1 X98.389 Y90.343 E0.02124
G1 X98.593 Y89.624 E0.02343
G1 X98.823 Y88.942 E0.02258
G1 X99.086 Y88.274 E0.02251
G1 X99.391 Y87.600 E0.02320
G1 X99.740 Y86.923 E0.02389
G1 X100.128 Y86.258 E0.02412
G1 X100.532 Y85.640 E0.02315
G1 X101.399 Y84.446 E0.04626
G1 X102.318 Y83.304 E0.04596
G1 X103.292 Y82.209 E0.04596
G1 X104.312 Y81.169 E0.04567
G1 X105.389 Y80.175 E0.04596
G1 X106.528 Y79.224 E0.04653
G1 X107.690 Y78.347 E0.04564
G1 X108.909 Y77.518 E0.04624
G1 X110.161 Y76.755 E0.04598
G1 X111.483 Y76.038 E0.04714
G1 X112.812 Y75.399 E0.04623
G1 X114.175 Y74.826 E0.04636
G1 X115.588 Y74.314 E0.04714
G1 X116.981 Y73.887 E0.04567
G1 X118.412 Y73.524 E0.04629
G1 X119.839 Y73.236 E0.04565
G1 X121.269 Y73.019 E0.04534
G1 X122.852 Y72.862 E0.04990
G1 X124.287 Y72.793 E0.04504
G1 X125.715 Y72.793 E0.04477
G1 X127.275 Y72.871 E0.04898
G1 X128.724 Y73.019 E0.04565
G1 X130.162 Y73.236 E0.04562
G1 X131.570 Y73.520 E0.04503
G1 X132.964 Y73.871 E0.04506
G1 X134.485 Y74.339 E0.04989
G1 X135.817 Y74.823 E0.04445
G1 X137.125 Y75.370 E0.04445
G1 X138.560 Y76.059 E0.04990
G1 X139.847 Y76.759 E0.04595
G1 X141.097 Y77.522 E0.04593
G1 X142.317 Y78.352 E0.04623
G1 X143.486 Y79.235 E0.04596
G1 X144.612 Y80.176 E0.04599
G1 X145.689 Y81.171 E0.04599
G1 X146.716 Y82.217 E0.04596
G1 X147.689 Y83.312 E0.04593
G1 X148.607 Y84.453 E0.04592
G1 X149.467 Y85.638 E0.04591
G1 X149.861 Y86.239 E0.02250
G1 X150.220 Y86.850 E0.02223
G1 X150.580 Y87.541 E0.02446
G1 X150.907 Y88.259 E0.02473
G1 X151.154 Y88.881 E0.02097
G1 X151.373 Y89.514 E0.02100
G1 X151.606 Y90.323 E0.02641
G1 X151.775 Y91.053 E0.02350
G1 X151.894 Y91.711 E0.02096
G1 X151.983 Y92.377 E0.02107
G1 X152.055 Y93.298 E0.02896
G1 X152.064 Y94.448 E0.03605
G1 X152.006 Y95.390 E0.02959
G1 X151.927 Y96.060 E0.02115
G1 X151.816 Y96.731 E0.02133
G1 X151.634 Y97.560 E0.02660
G1 X151.460 Y98.196 E0.02068
G1 X151.256 Y98.830 E0.02089
G1 X151.001 Y99.509 E0.02274
G1 X150.710 Y100.179 E0.02289
G1 X150.372 Y100.863 E0.02395
G1 X149.962 Y101.590 E0.02616
G1 X149.591 Y102.174 E0.02168
G1 X149.192 Y102.741 E0.02173
G1 X148.645 Y103.435 E0.02771
G1 X147.804 Y104.359 E0.03918
G1 X137.670 Y114.502 E0.44956
M73 P1 R27
M73 Q1 S27
G1 X137.608 Y114.594 E0.00348
G1 X137.294 Y114.385 F10800.000
G1 F1200.000
G1 X137.234 Y114.475 E0.00341
G1 X137.179 Y114.742 E0.00853
G1 X137.235 Y114.990 E0.00798
G1 X137.918 Y116.281 E0.04580
G1 X138.229 Y116.973 E0.02378
G1 X138.498 Y117.668 E0.02337
G1 X138.723 Y118.350 E0.02252
G1 X138.915 Y119.048 E0.02269
G1 X139.067 Y119.732 E0.02196
G1 X139.186 Y120.425 E0.02206
G1 X139.276 Y121.182 E0.02390
G1 X139.321 Y121.843 E0.02078
G1 X139.336 Y122.506 E0.02079
G1 X139.316 Y123.259 E0.02362
G1 X139.255 Y124.020 E0.02394
G1 X139.168 Y124.688 E0.02112
G1 X139.051 Y125.343 E0.02085
G1 X138.871 Y126.121 E0.02507
G1 X138.691 Y126.750 E0.02049
G1 X138.480 Y127.378 E0.02078
G1 X138.185 Y128.128 E0.02525
G1 X137.874 Y128.805 E0.02336
G1 X137.556 Y129.418 E0.02166
G1 X137.207 Y130.015 E0.02170
G1 X136.811 Y130.623 E0.02273
G1 X136.379 Y131.219 E0.02309
G1 X135.924 Y131.782 E0.02267
G1 X135.464 Y132.298 E0.02168
G1 X134.971 Y132.799 E0.02205
G1 X134.433 Y133.294 E0.02293
G1 X133.924 Y133.718 E0.02077
G1 X133.403 Y134.113 E0.02050
G1 X132.763 Y134.550 E0.02429
G1 X132.098 Y134.953 E0.02438
G1 X131.472 Y135.290 E0.02231
G1 X130.883 Y135.572 E0.02047
G1 X130.272 Y135.829 E0.02077
G1 X129.555 Y136.091 E0.02394
G1 X128.816 Y136.317 E0.02425
G1 X128.183 Y136.476 E0.02046
G1 X127.543 Y136.607 E0.02046
G1 X126.769 Y136.724 E0.02456
G1 X126.019 Y136.798 E0.02363
G1 X125.357 Y136.830 E0.02080
G1 X124.694 Y136.831 E0.02077
G1 X123.995 Y136.799 E0.02195
G1 X123.286 Y136.731 E0.02234
G1 X122.569 Y136.626 E0.02272
G1 X121.858 Y136.485 E0.02272
G1 X121.155 Y136.309 E0.02273
G1 X120.432 Y136.087 E0.02372
G1 X119.716 Y135.825 E0.02390
G1 X119.115 Y135.571 E0.02045
G1 X118.527 Y135.289 E0.02046
G1 X117.846 Y134.922 E0.02425
G1 X117.200 Y134.527 E0.02374
G1 X116.619 Y134.129 E0.02207
G1 X116.091 Y133.730 E0.02076
G1 X115.554 Y133.282 E0.02195
G1 X114.985 Y132.755 E0.02431
G1 X114.478 Y132.236 E0.02275
G1 X114.000 Y131.692 E0.02270
G1 X113.551 Y131.126 E0.02267
G1 X113.147 Y130.562 E0.02174
G1 X112.765 Y129.970 E0.02209
G1 X112.396 Y129.329 E0.02321
G1 X112.094 Y128.740 E0.02075
G1 X111.819 Y128.135 E0.02083
G1 X111.520 Y127.380 E0.02546
G1 X111.312 Y126.761 E0.02048
G1 X111.132 Y126.133 E0.02050
G1 X110.944 Y125.321 E0.02612
G1 X110.830 Y124.677 E0.02049
G1 X110.746 Y124.031 E0.02046
G1 X110.684 Y123.270 E0.02393
G1 X110.664 Y122.502 E0.02407
G1 X110.682 Y121.771 E0.02295
G1 X110.730 Y121.120 E0.02047
G1 X110.809 Y120.461 E0.02079
G1 X110.941 Y119.690 E0.02455
G1 X111.093 Y119.014 E0.02171
G1 X111.278 Y118.347 E0.02170
G1 X111.512 Y117.639 E0.02337
G1 X111.770 Y116.975 E0.02233
G1 X112.062 Y116.322 E0.02245
G1 X112.763 Y114.996 E0.04702
G1 X112.823 Y114.734 E0.00841
G1 X112.753 Y114.445 E0.00934
G1 X112.532 Y114.162 E0.01126
G1 X102.468 Y104.098 E0.44622
G1 X102.014 Y103.620 E0.02069
G1 X101.575 Y103.111 E0.02106
G1 X101.091 Y102.489 E0.02473
G1 X100.711 Y101.947 E0.02073
G1 X100.353 Y101.381 E0.02102
G1 X99.954 Y100.673 E0.02546
G1 X99.651 Y100.062 E0.02138
G1 X99.372 Y99.424 E0.02185
G1 X99.130 Y98.790 E0.02128
G1 X98.917 Y98.142 E0.02137
G1 X98.705 Y97.359 E0.02544
G1 X98.561 Y96.693 E0.02136
G1 X98.448 Y96.014 E0.02159
G1 X98.368 Y95.339 E0.02131
G1 X98.320 Y94.659 E0.02137
G1 X98.306 Y93.839 E0.02573
G1 X98.328 Y93.187 E0.02045
G1 X98.380 Y92.528 E0.02071
G1 X98.486 Y91.726 E0.02536
G1 X98.606 Y91.076 E0.02075
G1 X98.755 Y90.433 E0.02069
G1 X98.954 Y89.732 E0.02286
G1 X99.179 Y89.067 E0.02199
G1 X99.436 Y88.417 E0.02193
G1 X99.733 Y87.760 E0.02261
G1 X100.073 Y87.100 E0.02328
G1 X100.451 Y86.452 E0.02351
G1 X100.839 Y85.858 E0.02227
G1 X101.695 Y84.679 E0.04568
G1 X102.602 Y83.551 E0.04538
G1 X103.570 Y82.463 E0.04566
G1 X104.578 Y81.437 E0.04508
G1 X105.641 Y80.455 E0.04538
G1 X106.759 Y79.522 E0.04565
G1 X107.906 Y78.656 E0.04506
G1 X109.110 Y77.838 E0.04565
G1 X110.345 Y77.084 E0.04538
G1 X111.659 Y76.371 E0.04685
G1 X112.971 Y75.741 E0.04564
G1 X114.317 Y75.176 E0.04577
G1 X115.712 Y74.670 E0.04654
G1 X117.087 Y74.249 E0.04508
G1 X118.500 Y73.891 E0.04571
G1 X119.909 Y73.606 E0.04507
G1 X121.320 Y73.393 E0.04475
G1 X122.875 Y73.238 E0.04900
G1 X124.292 Y73.170 E0.04446
G1 X125.710 Y73.170 E0.04448
G1 X127.242 Y73.247 E0.04809
G1 X128.672 Y73.392 E0.04507
G1 X130.101 Y73.608 E0.04533
G1 X131.491 Y73.888 E0.04445
G1 X132.867 Y74.236 E0.04448
G1 X134.360 Y74.695 E0.04899
G1 X135.684 Y75.176 E0.04416
G1 X136.974 Y75.716 E0.04387
G1 X138.384 Y76.392 E0.04900
G1 X139.654 Y77.084 E0.04536
G1 X140.889 Y77.837 E0.04535
G1 X142.093 Y78.656 E0.04565
G1 X143.248 Y79.528 E0.04537
G1 X144.359 Y80.456 E0.04541
G1 X145.430 Y81.445 E0.04570
G1 X146.444 Y82.478 E0.04538
G1 X147.404 Y83.559 E0.04535
G1 X148.310 Y84.686 E0.04534
G1 X149.159 Y85.856 E0.04533
G1 X149.542 Y86.441 E0.02193
G1 X149.892 Y87.037 E0.02165
G1 X150.244 Y87.711 E0.02385
G1 X150.559 Y88.403 E0.02382
G1 X150.799 Y89.008 E0.02042
G1 X151.015 Y89.632 E0.02071
G1 X151.240 Y90.413 E0.02548
G1 X151.404 Y91.125 E0.02291
G1 X151.522 Y91.774 E0.02068
G1 X151.608 Y92.422 E0.02050
G1 X151.678 Y93.308 E0.02786
G1 X151.687 Y94.445 E0.03564
G1 X151.631 Y95.351 E0.02847
G1 X151.553 Y96.011 E0.02084
G1 X151.445 Y96.665 E0.02077
G1 X151.269 Y97.465 E0.02569
G1 X151.098 Y98.092 E0.02040
G1 X150.898 Y98.710 E0.02035
G1 X150.649 Y99.372 E0.02217
G1 X150.366 Y100.025 E0.02230
G1 X150.036 Y100.691 E0.02334
G1 X149.641 Y101.392 E0.02522
G1 X149.275 Y101.968 E0.02139
G1 X148.887 Y102.520 E0.02115
G1 X148.362 Y103.186 E0.02660
G1 X147.534 Y104.096 E0.03856
G1 X137.377 Y114.262 E0.45059
G1 X137.328 Y114.335 E0.00277
G1 X136.809 Y114.628 F10800.000
G1 F1200.000
G1 X136.805 Y114.796 E0.00527
G1 X136.878 Y115.122 E0.01046
G1 X137.582 Y116.452 E0.04720
G1 X137.879 Y117.114 E0.02275
G1 X138.142 Y117.791 E0.02276
G1 X138.364 Y118.464 E0.02222
G1 X138.550 Y119.144 E0.02210
G1 X138.696 Y119.800 E0.02109
G1 X138.812 Y120.475 E0.02146
G1 X138.900 Y121.213 E0.02331
G1 X138.945 Y121.856 E0.02022
G1 X138.959 Y122.501 E0.02021
G1 X138.940 Y123.234 E0.02301
G1 X138.881 Y123.976 E0.02334
G1 X138.796 Y124.626 E0.02055
G1 X138.681 Y125.272 E0.02055
G1 X138.507 Y126.022 E0.02417
G1 X138.330 Y126.642 E0.02021
G1 X138.124 Y127.253 E0.02022
G1 X137.840 Y127.975 E0.02433
G1 X137.538 Y128.635 E0.02275
G1 X137.228 Y129.232 E0.02109
G1 X136.888 Y129.814 E0.02112
G1 X136.503 Y130.405 E0.02213
G1 X136.082 Y130.986 E0.02249
G1 X135.640 Y131.534 E0.02209
G1 X135.192 Y132.036 E0.02111
G1 X134.712 Y132.525 E0.02146
G1 X134.188 Y133.007 E0.02235
G1 X133.692 Y133.420 E0.02021
G1 X133.179 Y133.810 E0.02022
G1 X132.555 Y134.236 E0.02369
G1 X131.916 Y134.624 E0.02344
G1 X131.305 Y134.952 E0.02173
G1 X130.724 Y135.229 E0.02019
G1 X130.130 Y135.480 E0.02021
G1 X129.431 Y135.735 E0.02334
G1 X128.719 Y135.952 E0.02333
G1 X128.095 Y136.110 E0.02018
G1 X127.473 Y136.236 E0.01990
G1 X126.718 Y136.351 E0.02395
G1 X125.997 Y136.421 E0.02272
G1 X125.343 Y136.453 E0.02052
G1 X124.698 Y136.454 E0.02022
G1 X124.017 Y136.422 E0.02138
G1 X123.326 Y136.356 E0.02175
G1 X122.628 Y136.254 E0.02212
G1 X121.936 Y136.117 E0.02212
G1 X121.252 Y135.944 E0.02212
G1 X120.548 Y135.728 E0.02310
G1 X119.859 Y135.476 E0.02300
G1 X119.266 Y135.225 E0.02017
G1 X118.693 Y134.951 E0.01991
G1 X118.030 Y134.592 E0.02365
G1 X117.409 Y134.213 E0.02282
G1 X116.836 Y133.821 E0.02177
G1 X116.322 Y133.432 E0.02019
G1 X115.806 Y133.002 E0.02108
G1 X115.244 Y132.482 E0.02400
G1 X114.758 Y131.983 E0.02184
G1 X114.293 Y131.454 E0.02210
G1 X113.854 Y130.902 E0.02208
G1 X113.456 Y130.346 E0.02145
G1 X113.085 Y129.770 E0.02150
G1 X112.729 Y129.152 E0.02233
G1 X112.431 Y128.572 E0.02046
G1 X112.164 Y127.983 E0.02026
G1 X111.876 Y127.255 E0.02455
G1 X111.671 Y126.645 E0.02019
G1 X111.496 Y126.033 E0.01994
G1 X111.315 Y125.250 E0.02520
G1 X111.202 Y124.616 E0.02020
G1 X111.120 Y123.986 E0.01990
G1 X111.061 Y123.245 E0.02333
G1 X111.041 Y122.497 E0.02345
G1 X111.058 Y121.794 E0.02206
G1 X111.106 Y121.152 E0.02019
G1 X111.183 Y120.511 E0.02023
G1 X111.312 Y119.758 E0.02396
G1 X111.458 Y119.110 E0.02084
G1 X111.637 Y118.461 E0.02111
G1 X111.868 Y117.762 E0.02307
G1 X112.120 Y117.116 E0.02173
G1 X112.399 Y116.493 E0.02143
G1 X113.114 Y115.137 E0.04805
G1 X113.186 Y114.870 E0.00868
G1 X113.196 Y114.737 E0.00420
G1 X113.185 Y114.578 E0.00499
G1 X113.100 Y114.298 E0.00916
G1 X112.995 Y114.123 E0.00642
G1 X112.805 Y113.902 E0.00915
G1 X102.740 Y103.837 E0.44629
G1 X102.297 Y103.370 E0.02020
G1 X101.870 Y102.876 E0.02046
G1 X101.391 Y102.261 E0.02442
G1 X101.023 Y101.735 E0.02014
G1 X100.679 Y101.192 E0.02016
G1 X100.285 Y100.493 E0.02515
G1 X99.991 Y99.899 E0.02078
G1 X99.722 Y99.285 E0.02101
G1 X99.487 Y98.668 E0.02072
G1 X99.280 Y98.039 E0.02077
G1 X99.072 Y97.274 E0.02483
G1 X98.932 Y96.627 E0.02079
G1 X98.822 Y95.965 E0.02102
G1 X98.743 Y95.299 E0.02103
G1 X98.697 Y94.638 E0.02079
G1 X98.683 Y93.847 E0.02481
G1 X98.705 Y93.204 E0.02016
G1 X98.756 Y92.563 E0.02015
