; generated by PrusaSlicer 2.3.1+linux-x64 on 2021-05-24 at 15:23:11 UTC

; 

; external perimeters extrusion width = 0.45mm
; perimeters extrusion width = 0.45mm
; infill extrusion width = 0.45mm
; solid infill extrusion width = 0.45mm
; top infill extrusion width = 0.40mm
; support material extrusion width = 0.35mm
; first layer extrusion width = 0.42mm

M73 P0 R111
M73 Q0 S111
M201 X1000 Y1000 Z200 E5000 ; sets maximum accelerations, mm/sec^2
M203 X200 Y200 Z12 E120 ; sets maximum feedrates, mm/sec
M204 P1250 R1250 T1250 ; sets acceleration (P, T) and retract acceleration (R), mm/sec^2
M205 X8.00 Y8.00 Z0.40 E4.50 ; sets the jerk limits, mm/sec
M205 S0 T0 ; sets the minimum extruding and travel feed rate, mm/sec
M107
;TYPE:Custom
M862.3 P "MK3S" ; printer model check
M862.1 P0.4 ; nozzle diameter check
M115 U3.9.3 ; tell printer latest fw version
G90 ; use absolute coordinates
M83 ; extruder relative mode
M104 S205 ; set extruder temp
M140 S70 ; set bed temp
M190 S70 ; wait for bed temp
M109 S205 ; wait for extruder temp
G28 W ; home all without mesh bed level
G80 ; mesh bed leveling
G1 Y-3.0 F1000.0 ; go outside print area
G92 E0.0
G1 X60.0 E9.0 F1000.0 ; intro line
G1 X100.0 E12.5 F1000.0 ; intro line
G92 E0.0
M221 S95

; Don't change E values below. Excessive value can damage the printer.
M907 E430 ; set extruder motor current
G21 ; set units to millimeters
G90 ; use absolute coordinates
M83 ; use relative distances for extrusion
M900 K0.05 ; Filament gcode LA 1.5
M900 K30 ; Filament gcode LA 1.0
;LAYER_CHANGE
;Z:0.2
;HEIGHT:0.2
;BEFORE_LAYER_CHANGE
G92 E0.0
;0.2


G1 E-0.80000 F2100.000
G1 Z0.400 F10800.000
;AFTER_LAYER_CHANGE
;0.2
G1 X101.803 Y89.420
G1 Z0.200
G1 E0.80000 F2100.000
M204 S1000
;TYPE:Skirt
;WIDTH:0.42
G1 F1200.000
G1 X104.236 Y86.861 E0.11071
G1 X104.405 Y86.723 E0.00682
G1 X104.520 Y86.578 E0.00580
G1 X106.788 Y84.345 E0.09982
G1 X108.214 Y83.591 E0.05056
G1 X109.115 Y83.382 E0.02901
G1 X109.528 Y83.360 E0.01298
G1 X109.975 Y83.290 E0.01419
G1 X111.808 Y83.290 E0.05748
G1 X112.534 Y82.589 E0.03165
G1 X113.432 Y82.135 E0.03153
G1 X113.511 Y81.946 E0.00642
G1 X114.136 Y81.011 E0.03527
G1 X115.363 Y79.986 E0.05011
G1 X116.614 Y79.454 E0.04265
G1 X117.887 Y79.194 E0.04072
G1 X119.675 Y79.176 E0.05607
G1 X131.915 Y79.186 E0.38378
G1 X133.306 Y79.518 E0.04483
G1 X134.544 Y80.226 E0.04472
G1 X136.090 Y81.745 E0.06796
G1 X136.464 Y82.305 E0.02111
G1 X137.029 Y82.671 E0.02109
G1 X137.653 Y83.295 E0.02767
G1 X140.082 Y83.329 E0.07617
G1 X141.238 Y83.638 E0.03752
G1 X142.277 Y84.197 E0.03701
G1 X148.118 Y89.962 E0.25730
G1 X148.627 Y90.710 E0.02837
G1 X149.108 Y92.239 E0.05026
G1 X149.126 Y93.259 E0.03198
G1 X150.342 Y94.528 E0.05511
G1 X150.987 Y95.682 E0.04144
G1 X151.308 Y96.993 E0.04232
G1 X151.322 Y99.492 E0.07836
G1 X151.439 Y100.069 E0.01848
G1 X151.434 Y101.041 E0.03047
G1 X151.321 Y101.688 E0.02061
G1 X151.324 Y113.240 E0.36220
G1 X151.134 Y114.147 E0.02903
G1 X151.063 Y114.646 E0.01582
G1 X150.217 Y116.339 E0.05935
G1 X148.999 Y117.582 E0.05456
G1 X148.957 Y118.643 E0.03331
G1 X148.660 Y119.691 E0.03413
G1 X148.112 Y120.701 E0.03603
G1 X145.754 Y123.148 E0.10656
G1 X145.594 Y123.278 E0.00645
G1 X145.480 Y123.422 E0.00574
G1 X143.212 Y125.655 E0.09982
G1 X141.786 Y126.409 E0.05056
G1 X140.885 Y126.618 E0.02901
G1 X140.472 Y126.640 E0.01298
G1 X140.025 Y126.710 E0.01419
G1 X138.168 Y126.710 E0.05823
G1 X138.025 Y126.892 E0.00727
G1 X137.268 Y127.547 E0.03140
G1 X136.535 Y127.907 E0.02558
G1 X136.388 Y128.239 E0.01139
G1 X135.844 Y129.016 E0.02974
G1 X134.547 Y130.065 E0.05231
G1 X133.278 Y130.578 E0.04290
G1 X131.961 Y130.824 E0.04200
G1 X120.437 Y130.821 E0.36135
G1 X119.714 Y130.938 E0.02297
G1 X118.099 Y130.938 E0.05064
G1 X117.169 Y130.778 E0.02958
G1 X115.541 Y129.904 E0.05795
G1 X114.093 Y128.417 E0.06507
G1 X113.800 Y127.951 E0.01725
G1 X113.254 Y127.613 E0.02012
G1 X112.353 Y126.707 E0.04007
G1 X111.740 Y126.707 E0.01920
G1 X111.078 Y126.820 E0.02108
G1 X109.844 Y126.789 E0.03869
G1 X108.618 Y126.420 E0.04016
G1 X107.595 Y125.763 E0.03810
G1 X102.146 Y120.299 E0.24194
G1 X101.401 Y119.108 E0.04408
G1 X101.093 Y118.186 E0.03047
G1 X101.041 Y117.623 E0.01771
G1 X99.884 Y116.470 E0.05122
G1 X99.291 Y115.633 E0.03216
G1 X98.698 Y113.789 E0.06075
G1 X98.675 Y112.102 E0.05288
G1 X98.688 Y111.920 E0.00574
G1 X98.676 Y96.761 E0.47530
G1 X98.866 Y95.854 E0.02906
G1 X98.937 Y95.354 E0.01582
G1 X99.783 Y93.661 E0.05934
G1 X101.004 Y92.415 E0.05468
G1 X101.047 Y91.336 E0.03388
G1 X101.331 Y90.326 E0.03290
G1 X101.775 Y89.473 E0.03015
G1 X102.110 Y89.647 F10800.000
G1 F1200.000
G1 X104.500 Y87.131 E0.10881
G1 X104.676 Y86.989 E0.00708
G1 X104.794 Y86.838 E0.00603
G1 X107.032 Y84.633 E0.09851
G1 X108.365 Y83.937 E0.04715
G1 X109.180 Y83.754 E0.02619
G1 X109.567 Y83.736 E0.01213
G1 X109.991 Y83.667 E0.01347
G1 X112.009 Y83.667 E0.06327
G1 X112.128 Y83.506 E0.00629
G1 X112.732 Y82.912 E0.02656
G1 X113.733 Y82.405 E0.03519
G1 X113.839 Y82.134 E0.00911
G1 X114.401 Y81.281 E0.03205
G1 X115.537 Y80.321 E0.04663
G1 X116.710 Y79.819 E0.03999
G1 X117.909 Y79.571 E0.03840
G1 X119.676 Y79.553 E0.05539
G1 X131.892 Y79.563 E0.38303
G1 X133.190 Y79.878 E0.04187
G1 X134.334 Y80.540 E0.04144
G1 X135.811 Y81.999 E0.06509
G1 X136.194 Y82.580 E0.02181
G1 X136.777 Y82.952 E0.02171
G1 X137.495 Y83.670 E0.03183
G1 X140.008 Y83.700 E0.07879
G1 X141.119 Y83.996 E0.03606
G1 X142.073 Y84.515 E0.03407
G1 X147.839 Y90.217 E0.25424
G1 X148.299 Y90.897 E0.02574
G1 X148.739 Y92.323 E0.04679
G1 X148.750 Y93.412 E0.03415
G1 X150.026 Y94.735 E0.05762
G1 X150.627 Y95.798 E0.03830
G1 X150.931 Y97.017 E0.03939
G1 X150.945 Y99.533 E0.07886
G1 X151.062 Y100.088 E0.01779
G1 X151.057 Y101.022 E0.02930
G1 X150.944 Y101.655 E0.02015
G1 X150.947 Y113.220 E0.36263
G1 X150.763 Y114.080 E0.02757
G1 X150.694 Y114.562 E0.01525
G1 X149.894 Y116.141 E0.05552
G1 X148.627 Y117.421 E0.05648
G1 X148.588 Y118.563 E0.03582
G1 X148.303 Y119.567 E0.03272
G1 X147.794 Y120.497 E0.03324
G1 X145.491 Y122.877 E0.10383
G1 X145.323 Y123.012 E0.00675
G1 X145.206 Y123.162 E0.00598
G1 X142.968 Y125.367 E0.09851
G1 X141.635 Y126.063 E0.04715
G1 X140.820 Y126.246 E0.02619
G1 X140.433 Y126.264 E0.01213
G1 X140.009 Y126.333 E0.01347
G1 X137.974 Y126.333 E0.06381
G1 X137.760 Y126.622 E0.01130
G1 X137.040 Y127.245 E0.02985
G1 X136.243 Y127.628 E0.02773
G1 X136.067 Y128.040 E0.01403
G1 X135.550 Y128.778 E0.02826
G1 X134.379 Y129.727 E0.04726
G1 X133.189 Y130.211 E0.04027
G1 X131.944 Y130.447 E0.03975
G1 X120.405 Y130.444 E0.36177
M73 P0 R110
G1 X119.698 Y130.561 E0.02248
G1 X118.115 Y130.561 E0.04962
G1 X117.264 Y130.412 E0.02709
G1 X115.791 Y129.620 E0.05245
G1 X114.378 Y128.169 E0.06349
G1 X114.073 Y127.676 E0.01818
G1 X113.505 Y127.330 E0.02086
G1 X112.510 Y126.330 E0.04424
G1 X111.707 Y126.330 E0.02517
G1 X111.066 Y126.443 E0.02041
G1 X109.925 Y126.420 E0.03576
G1 X108.797 Y126.087 E0.03688
G1 X107.847 Y125.482 E0.03532
G1 X102.428 Y120.048 E0.24062
G1 X101.751 Y118.967 E0.03999
G1 X101.458 Y118.089 E0.02903
G1 X101.407 Y117.455 E0.01994
G1 X100.162 Y116.215 E0.05509
G1 X99.616 Y115.440 E0.02973
G1 X99.075 Y113.756 E0.05546
G1 X99.052 Y112.106 E0.05172
G1 X99.066 Y111.934 E0.00540
G1 X99.053 Y96.781 E0.47513
G1 X99.237 Y95.920 E0.02760
G1 X99.306 Y95.438 E0.01525
G1 X100.106 Y93.858 E0.05552
G1 X101.376 Y92.576 E0.05659
G1 X101.416 Y91.414 E0.03645
G1 X101.675 Y90.482 E0.03033
G1 X102.082 Y89.700 E0.02764
G1 X102.415 Y89.876 F10800.000
G1 F1200.000
G1 X102.446 Y89.817 E0.00207
G1 X104.762 Y87.402 E0.10493
G1 X104.947 Y87.255 E0.00740
G1 X105.068 Y87.096 E0.00627
G1 X107.276 Y84.922 E0.09715
G1 X108.515 Y84.284 E0.04369
G1 X109.243 Y84.126 E0.02335
G1 X109.605 Y84.112 E0.01137
G1 X110.007 Y84.045 E0.01278
G1 X112.209 Y84.045 E0.06903
G1 X112.406 Y83.761 E0.01084
G1 X112.974 Y83.202 E0.02497
G1 X114.037 Y82.676 E0.03717
G1 X114.168 Y82.320 E0.01191
G1 X114.668 Y81.549 E0.02880
G1 X115.713 Y80.656 E0.04312
G1 X116.807 Y80.184 E0.03733
G1 X117.932 Y79.948 E0.03606
G1 X119.676 Y79.930 E0.05470
G1 X131.869 Y79.940 E0.38228
G1 X133.072 Y80.238 E0.03887
G1 X134.122 Y80.853 E0.03815
G1 X135.530 Y82.252 E0.06224
G1 X135.923 Y82.855 E0.02256
G1 X136.526 Y83.234 E0.02234
G1 X137.337 Y84.046 E0.03599
G1 X139.934 Y84.070 E0.08141
G1 X140.999 Y84.354 E0.03458
G1 X141.868 Y84.833 E0.03110
G1 X147.560 Y90.471 E0.25120
G1 X147.969 Y91.083 E0.02309
G1 X148.370 Y92.405 E0.04331
G1 X148.373 Y93.368 E0.03021
G1 X148.347 Y93.539 E0.00540
G1 X149.711 Y94.943 E0.06139
G1 X150.268 Y95.917 E0.03517
G1 X150.554 Y97.043 E0.03643
G1 X150.568 Y99.575 E0.07940
G1 X150.685 Y100.107 E0.01708
G1 X150.680 Y101.003 E0.02808
G1 X150.566 Y101.620 E0.01967
G1 X150.570 Y113.199 E0.36307
G1 X150.392 Y114.013 E0.02610
G1 X150.325 Y114.477 E0.01470
G1 X149.573 Y115.942 E0.05165
G1 X148.254 Y117.260 E0.05847
G1 X148.218 Y118.483 E0.03836
G1 X147.947 Y119.443 E0.03128
G1 X147.476 Y120.292 E0.03042
G1 X145.230 Y122.605 E0.10109
G1 X145.052 Y122.746 E0.00712
G1 X144.932 Y122.904 E0.00624
G1 X142.724 Y125.078 E0.09715
G1 X141.485 Y125.716 E0.04369
G1 X140.757 Y125.874 E0.02335
G1 X140.395 Y125.888 E0.01137
G1 X139.993 Y125.955 E0.01278
G1 X137.777 Y125.955 E0.06947
G1 X137.495 Y126.353 E0.01530
G1 X136.814 Y126.943 E0.02825
G1 X135.950 Y127.349 E0.02994
G1 X135.746 Y127.842 E0.01671
G1 X135.256 Y128.540 E0.02675
G1 X134.210 Y129.389 E0.04225
G1 X133.099 Y129.845 E0.03764
G1 X131.926 Y130.070 E0.03747
G1 X120.373 Y130.066 E0.36222
G1 X119.682 Y130.184 E0.02199
G1 X118.132 Y130.184 E0.04857
G1 X117.361 Y130.046 E0.02459
G1 X116.041 Y129.336 E0.04699
G1 X114.664 Y127.922 E0.06188
G1 X114.348 Y127.400 E0.01915
G1 X113.755 Y127.047 E0.02163
G1 X112.666 Y125.953 E0.04837
G1 X111.672 Y125.952 E0.03117
G1 X111.052 Y126.066 E0.01978
G1 X110.005 Y126.050 E0.03284
G1 X108.975 Y125.754 E0.03359
G1 X108.099 Y125.200 E0.03249
G1 X102.710 Y119.797 E0.23928
G1 X102.102 Y118.826 E0.03591
G1 X101.824 Y117.993 E0.02755
G1 X101.773 Y117.288 E0.02215
G1 X100.440 Y115.959 E0.05902
G1 X99.941 Y115.247 E0.02728
G1 X99.451 Y113.722 E0.05020
G1 X99.430 Y112.110 E0.05055
G1 X99.443 Y111.950 E0.00504
G1 X99.430 Y96.801 E0.47498
G1 X99.608 Y95.987 E0.02612
G1 X99.675 Y95.523 E0.01470
G1 X100.427 Y94.058 E0.05165
G1 X101.749 Y92.737 E0.05858
G1 X101.786 Y91.493 E0.03903
G1 X102.033 Y90.603 E0.02896
G1 X102.387 Y89.929 E0.02388
G1 X102.721 Y90.104 F10800.000
G1 F1200.000
G1 X102.767 Y90.017 E0.00311
G1 X105.024 Y87.674 E0.10199
G1 X105.220 Y87.521 E0.00779
G1 X105.344 Y87.354 E0.00654
G1 X107.519 Y85.212 E0.09572
G1 X108.662 Y84.632 E0.04017
G1 X109.302 Y84.498 E0.02050
G1 X109.643 Y84.488 E0.01070
G1 X110.024 Y84.422 E0.01212
G1 X112.410 Y84.422 E0.07482
G1 X112.685 Y84.016 E0.01537
G1 X113.216 Y83.493 E0.02335
G1 X114.342 Y82.948 E0.03924
G1 X114.497 Y82.505 E0.01472
G1 X114.969 Y81.777 E0.02720
G1 X115.890 Y80.990 E0.03797
G1 X116.904 Y80.549 E0.03469
G1 X117.955 Y80.325 E0.03368
G1 X119.677 Y80.307 E0.05401
G1 X131.845 Y80.318 E0.38150
G1 X132.953 Y80.596 E0.03583
G1 X133.908 Y81.164 E0.03486
G1 X135.249 Y82.504 E0.05941
G1 X135.651 Y83.131 E0.02337
G1 X136.275 Y83.517 E0.02300
G1 X137.180 Y84.422 E0.04014
G1 X139.860 Y84.441 E0.08402
G1 X140.879 Y84.712 E0.03307
G1 X141.662 Y85.149 E0.02810
G1 X147.280 Y90.725 E0.24819
G1 X147.639 Y91.267 E0.02039
G1 X148.001 Y92.484 E0.03981
G1 X147.996 Y93.346 E0.02703
G1 X147.939 Y93.661 E0.01002
G1 X149.398 Y95.153 E0.06543
G1 X149.910 Y96.037 E0.03203
G1 X150.177 Y97.069 E0.03342
G1 X150.191 Y99.620 E0.07999
G1 X150.308 Y100.128 E0.01634
G1 X150.303 Y100.983 E0.02682
G1 X150.189 Y101.584 E0.01918
G1 X150.193 Y113.178 E0.36352
G1 X150.021 Y113.944 E0.02461
G1 X149.957 Y114.392 E0.01419
G1 X149.286 Y115.696 E0.04598
G1 X147.880 Y117.101 E0.06231
G1 X147.849 Y118.404 E0.04087
G1 X147.590 Y119.319 E0.02981
G1 X147.160 Y120.085 E0.02756
G1 X144.970 Y122.332 E0.09837
G1 X144.780 Y122.479 E0.00756
G1 X144.656 Y122.646 E0.00651
G1 X142.480 Y124.788 E0.09572
G1 X141.338 Y125.368 E0.04017
G1 X140.698 Y125.502 E0.02050
G1 X140.357 Y125.512 E0.01070
G1 X139.976 Y125.578 E0.01212
G1 X137.577 Y125.578 E0.07520
G1 X137.229 Y126.085 E0.01928
G1 X136.588 Y126.640 E0.02659
G1 X135.655 Y127.069 E0.03219
G1 X135.424 Y127.644 E0.01941
G1 X134.963 Y128.302 E0.02522
G1 X134.040 Y129.051 E0.03726
G1 X133.008 Y129.478 E0.03502
G1 X131.907 Y129.693 E0.03516
G1 X120.340 Y129.689 E0.36268
G1 X119.665 Y129.807 E0.02149
G1 X118.150 Y129.807 E0.04751
G1 X117.458 Y129.680 E0.02206
G1 X116.291 Y129.052 E0.04155
G1 X114.950 Y127.676 E0.06025
G1 X114.623 Y127.123 E0.02016
G1 X114.004 Y126.763 E0.02244
G1 X112.823 Y125.576 E0.05248
G1 X111.637 Y125.575 E0.03720
G1 X111.036 Y125.688 E0.01918
G1 X110.081 Y125.680 E0.02992
G1 X109.151 Y125.419 E0.03028
G1 X108.351 Y124.918 E0.02961
G1 X102.992 Y119.545 E0.23794
G1 X102.452 Y118.685 E0.03183
G1 X102.189 Y117.898 E0.02604
G1 X102.142 Y117.123 E0.02434
G1 X100.719 Y115.704 E0.06300
G1 X100.267 Y115.055 E0.02481
G1 X99.828 Y113.689 E0.04497
G1 X99.807 Y112.115 E0.04935
G1 X99.820 Y111.967 E0.00467
G1 X99.807 Y96.822 E0.47485
G1 X99.979 Y96.056 E0.02463
G1 X100.043 Y95.608 E0.01420
G1 X100.714 Y94.304 E0.04598
G1 X102.122 Y92.897 E0.06240
G1 X102.156 Y91.569 E0.04165
G1 X102.376 Y90.760 E0.02631
G1 X102.693 Y90.157 E0.02134
G1 X103.027 Y90.333 F10800.000
G1 F1200.000
G1 X103.088 Y90.216 E0.00414
G1 X105.285 Y87.947 E0.09901
G1 X105.494 Y87.787 E0.00826
G1 X105.621 Y87.611 E0.00682
G1 X107.762 Y85.502 E0.09423
G1 X108.806 Y84.981 E0.03658
G1 X109.358 Y84.872 E0.01762
G1 X109.681 Y84.865 E0.01015
G1 X110.042 Y84.799 E0.01149
G1 X112.614 Y84.799 E0.08064
G1 X112.964 Y84.270 E0.01989
G1 X113.457 Y83.785 E0.02169
G1 X114.650 Y83.220 E0.04138
G1 X114.828 Y82.689 E0.01756
G1 X115.271 Y82.005 E0.02555
G1 X116.067 Y81.324 E0.03284
G1 X117.003 Y80.913 E0.03206
G1 X117.978 Y80.701 E0.03128
G1 X119.678 Y80.685 E0.05330
G1 X131.820 Y80.695 E0.38072
G1 X132.831 Y80.954 E0.03273
G1 X133.693 Y81.475 E0.03157
G1 X134.969 Y82.757 E0.05670
G1 X135.261 Y83.201 E0.01669
G1 X135.338 Y83.382 E0.00617
G1 X136.025 Y83.800 E0.02520
G1 X137.024 Y84.799 E0.04428
G1 X139.786 Y84.811 E0.08662
G1 X140.758 Y85.070 E0.03153
G1 X141.453 Y85.464 E0.02505
G1 X147.000 Y90.978 E0.24521
G1 X147.308 Y91.450 E0.01768
G1 X147.623 Y92.510 E0.03468
G1 X147.619 Y93.325 E0.02557
G1 X147.530 Y93.783 E0.01462
G1 X149.085 Y95.365 E0.06956
G1 X149.553 Y96.159 E0.02890
G1 X149.800 Y97.095 E0.03035
G1 X149.814 Y99.667 E0.08063
G1 X149.931 Y100.149 E0.01557
G1 X149.926 Y100.963 E0.02551
G1 X149.812 Y101.547 E0.01867
G1 X149.815 Y113.156 E0.36398
G1 X149.650 Y113.874 E0.02311
G1 X149.588 Y114.308 E0.01372
G1 X148.999 Y115.450 E0.04030
G1 X147.505 Y116.942 E0.06618
G1 X147.479 Y118.325 E0.04337
G1 X147.234 Y119.193 E0.02830
G1 X146.845 Y119.877 E0.02466
G1 X144.711 Y122.057 E0.09566
G1 X144.506 Y122.214 E0.00807
G1 X144.379 Y122.389 E0.00680
G1 X142.238 Y124.498 E0.09424
G1 X141.194 Y125.019 E0.03658
M73 Q0 S110
G1 X140.642 Y125.128 E0.01762
G1 X140.319 Y125.135 E0.01015
G1 X139.958 Y125.201 E0.01149
G1 X137.375 Y125.201 E0.08100
G1 X136.962 Y125.817 E0.02324
G1 X136.362 Y126.336 E0.02488
G1 X135.359 Y126.788 E0.03450
G1 X135.102 Y127.447 E0.02216
G1 X134.669 Y128.065 E0.02366
G1 X133.869 Y128.714 E0.03230
G1 X132.916 Y129.112 E0.03240
G1 X131.889 Y129.315 E0.03283
G1 X120.271 Y129.312 E0.36426
G1 X120.152 Y129.349 E0.00392
G1 X119.651 Y129.430 E0.01589
G1 X118.168 Y129.430 E0.04651
G1 X117.556 Y129.315 E0.01951
G1 X116.541 Y128.769 E0.03616
G1 X115.237 Y127.430 E0.05859
G1 X114.898 Y126.845 E0.02121
G1 X114.253 Y126.478 E0.02328
G1 X112.980 Y125.200 E0.05656
G1 X111.600 Y125.198 E0.04327
G1 X111.017 Y125.311 E0.01863
G1 X110.155 Y125.310 E0.02702
G1 X109.326 Y125.084 E0.02695
G1 X108.602 Y124.636 E0.02668
G1 X103.274 Y119.294 E0.23657
G1 X102.803 Y118.545 E0.02775
G1 X102.555 Y117.803 E0.02451
G1 X102.511 Y116.959 E0.02651
G1 X100.997 Y115.450 E0.06703
G1 X100.593 Y114.864 E0.02232
G1 X100.205 Y113.656 E0.03978
G1 X100.184 Y112.121 E0.04812
G1 X100.197 Y111.986 E0.00427
G1 X100.184 Y96.844 E0.47475
G1 X100.350 Y96.126 E0.02312
