; generated by PrusaSlicer 2.3.1+linux-x64 on 2021-05-26 at 05:18:28 UTC

; 

; external perimeters extrusion width = 0.45mm
; perimeters extrusion width = 0.45mm
; infill extrusion width = 0.45mm
; solid infill extrusion width = 0.45mm
; top infill extrusion width = 0.40mm
; support material extrusion width = 0.35mm
; first layer extrusion width = 0.42mm

M73 P0 R31
M73 Q0 S31
M201 X1000 Y1000 Z200 E5000 ; sets maximum accelerations, mm/sec^2
M203 X200 Y200 Z12 E120 ; sets maximum feedrates, mm/sec
M204 P1250 R1250 T1250 ; sets acceleration (P, T) and retract acceleration (R), mm/sec^2
M205 X8.00 Y8.00 Z0.40 E4.50 ; sets the jerk limits, mm/sec
M205 S0 T0 ; sets the minimum extruding and travel feed rate, mm/sec
M107
;TYPE:Custom
M862.3 P "MK3S" ; printer model check
M862.1 P0.4 ; nozzle diameter check
M115 U3.9.3 ; tell printer latest fw version
G90 ; use absolute coordinates
M83 ; extruder relative mode
M104 S205 ; set extruder temp
M140 S70 ; set bed temp
M190 S70 ; wait for bed temp
M109 S205 ; wait for extruder temp
G28 W ; home all without mesh bed level
G80 ; mesh bed leveling
G1 Y-3.0 F1000.0 ; go outside print area
G92 E0.0
G1 X60.0 E9.0 F1000.0 ; intro line
G1 X100.0 E12.5 F1000.0 ; intro line
G92 E0.0
M221 S95

; Don't change E values below. Excessive value can damage the printer.
M907 E430 ; set extruder motor current
G21 ; set units to millimeters
G90 ; use absolute coordinates
M83 ; use relative distances for extrusion
M900 K0.05 ; Filament gcode LA 1.5
M900 K30 ; Filament gcode LA 1.0
;LAYER_CHANGE
;Z:0.2
;HEIGHT:0.2
;BEFORE_LAYER_CHANGE
G92 E0.0
;0.2


G1 E-0.80000 F2100.000
G1 Z0.400 F10800.000
;AFTER_LAYER_CHANGE
;0.2
G1 X141.925 Y96.352
M73 P0 R30
G1 Z0.200
G1 E0.80000 F2100.000
M204 S1000
;TYPE:Skirt
;WIDTH:0.42
G1 F1200.000
G1 X142.904 Y96.619 E0.03180
G1 X143.613 Y97.007 E0.02537
G1 X143.897 Y97.229 E0.01129
G1 X144.219 Y97.384 E0.01120
G1 X145.430 Y98.196 E0.04570
G1 X146.870 Y99.660 E0.06441
G1 X147.926 Y101.414 E0.06419
G1 X148.519 Y103.252 E0.06056
G1 X148.698 Y105.152 E0.05981
G1 X148.489 Y106.899 E0.05518
G1 X147.855 Y108.742 E0.06112
G1 X146.937 Y110.254 E0.05544
G1 X145.740 Y111.543 E0.05514
G1 X144.274 Y112.583 E0.05637
G1 X143.760 Y112.828 E0.01786
G1 X143.606 Y112.949 E0.00616
G1 X143.067 Y113.267 E0.01961
G1 X141.889 Y113.673 E0.03906
G1 X141.728 Y114.339 E0.02148
G1 X141.062 Y115.572 E0.04394
G1 X139.871 Y116.703 E0.05149
G1 X138.362 Y117.374 E0.05179
G1 X137.711 Y117.458 E0.02056
G1 X136.914 Y117.454 E0.02500
G1 X136.659 Y117.481 E0.00803
G1 X135.241 Y117.481 E0.04446
G1 X134.636 Y117.456 E0.01898
G1 X134.397 Y117.481 E0.00755
G1 X113.341 Y117.481 E0.66020
G1 X113.055 Y117.450 E0.00899
G1 X111.785 Y117.391 E0.03987
G1 X110.387 Y116.876 E0.04671
G1 X109.687 Y116.358 E0.02731
G1 X108.941 Y115.575 E0.03391
G1 X108.423 Y114.715 E0.03149
G1 X108.080 Y113.662 E0.03472
G1 X107.036 Y113.364 E0.03405
G1 X106.220 Y112.899 E0.02942
G1 X106.011 Y112.728 E0.00847
G1 X105.552 Y112.500 E0.01606
G1 X104.193 Y111.507 E0.05280
G1 X102.622 Y109.659 E0.07603
G1 X101.745 Y107.814 E0.06406
G1 X101.307 Y105.766 E0.06565
G1 X101.369 Y103.711 E0.06448
G1 X101.896 Y101.765 E0.06321
G1 X102.756 Y100.138 E0.05769
G1 X103.963 Y98.704 E0.05877
G1 X105.509 Y97.527 E0.06091
G1 X106.180 Y97.199 E0.02345
G1 X106.349 Y97.062 E0.00682
G1 X106.800 Y96.783 E0.01661
G1 X107.858 Y96.388 E0.03540
G1 X108.146 Y96.355 E0.00909
G1 X108.482 Y95.320 E0.03412
G1 X109.024 Y94.437 E0.03249
G1 X109.830 Y93.616 E0.03606
G1 X110.548 Y93.107 E0.02760
G1 X112.452 Y92.519 E0.06250
G1 X136.659 Y92.519 E0.75901
G1 X136.945 Y92.550 E0.00899
G1 X138.215 Y92.609 E0.03987
G1 X139.613 Y93.124 E0.04671
G1 X140.313 Y93.642 E0.02731
G1 X141.059 Y94.425 E0.03391
G1 X141.577 Y95.285 E0.03149
G1 X141.906 Y96.295 E0.03332
G1 X141.553 Y96.644 F10800.000
G1 F1200.000
G1 X142.743 Y96.961 E0.03863
G1 X143.418 Y97.330 E0.02412
G1 X143.697 Y97.551 E0.01114
G1 X144.022 Y97.706 E0.01129
G1 X145.175 Y98.474 E0.04345
G1 X146.586 Y99.909 E0.06309
G1 X147.575 Y101.551 E0.06011
G1 X148.145 Y103.309 E0.05796
G1 X148.321 Y105.128 E0.05729
G1 X148.125 Y106.796 E0.05264
G1 X147.505 Y108.600 E0.05983
M73 Q0 S30
G1 X146.625 Y110.041 E0.05292
G1 X145.478 Y111.271 E0.05275
G1 X144.071 Y112.265 E0.05402
G1 X143.558 Y112.506 E0.01775
G1 X143.400 Y112.633 E0.00639
G1 X142.925 Y112.918 E0.01735
G1 X141.915 Y113.267 E0.03351
G1 X141.588 Y113.296 E0.01027
G1 X141.383 Y114.185 E0.02863
G1 X140.778 Y115.322 E0.04036
G1 X139.686 Y116.373 E0.04753
G1 X138.285 Y117.004 E0.04816
G1 X137.676 Y117.082 E0.01926
G1 X136.894 Y117.077 E0.02451
G1 X136.648 Y117.104 E0.00776
G1 X135.245 Y117.104 E0.04400
G1 X134.623 Y117.078 E0.01952
G1 X134.386 Y117.104 E0.00748
G1 X113.351 Y117.104 E0.65952
G1 X113.084 Y117.074 E0.00845
G1 X111.885 Y117.027 E0.03760
G1 X110.588 Y116.556 E0.04327
G1 X109.947 Y116.085 E0.02494
G1 X109.252 Y115.360 E0.03149
G1 X108.774 Y114.577 E0.02877
G1 X108.471 Y113.646 E0.03069
G1 X108.445 Y113.332 E0.00989
G1 X108.224 Y113.310 E0.00698
G1 X107.202 Y113.024 E0.03328
G1 X106.422 Y112.580 E0.02812
G1 X106.218 Y112.410 E0.00834
G1 X105.761 Y112.186 E0.01597
G1 X104.433 Y111.215 E0.05157
G1 X102.951 Y109.474 E0.07168
G1 X102.109 Y107.712 E0.06124
G1 X101.684 Y105.754 E0.06283
G1 X101.739 Y103.788 E0.06167
G1 X102.254 Y101.884 E0.06184
G1 X103.079 Y100.333 E0.05507
G1 X104.237 Y98.964 E0.05624
G1 X105.721 Y97.840 E0.05836
G1 X106.385 Y97.519 E0.02313
G1 X106.559 Y97.376 E0.00706
G1 X106.982 Y97.114 E0.01560
G1 X107.960 Y96.752 E0.03270
G1 X108.427 Y96.716 E0.01467
G1 X108.816 Y95.497 E0.04011
G1 X109.334 Y94.652 E0.03107
G1 X110.085 Y93.894 E0.03348
G1 X110.740 Y93.432 E0.02512
G1 X112.480 Y92.896 E0.05709
G1 X136.649 Y92.896 E0.75778
M73 P1 R30
M73 Q1 S30
G1 X136.916 Y92.926 E0.00845
G1 X138.115 Y92.973 E0.03760
G1 X139.412 Y93.444 E0.04327
G1 X140.053 Y93.915 E0.02494
G1 X140.748 Y94.640 E0.03149
G1 X141.226 Y95.423 E0.02877
G1 X141.529 Y96.354 E0.03069
G1 X141.548 Y96.584 E0.00726
G1 X141.187 Y97.044 F10800.000
G1 F1200.000
G1 X141.651 Y97.058 E0.01456
G1 X142.582 Y97.303 E0.03020
G1 X143.221 Y97.653 E0.02284
G1 X143.495 Y97.873 E0.01101
G1 X143.826 Y98.028 E0.01145
G1 X144.920 Y98.753 E0.04115
G1 X146.301 Y100.157 E0.06177
G1 X147.223 Y101.689 E0.05604
G1 X147.772 Y103.367 E0.05538
G1 X147.944 Y105.106 E0.05476
G1 X147.762 Y106.693 E0.05009
G1 X147.155 Y108.458 E0.05853
G1 X146.314 Y109.827 E0.05037
G1 X145.216 Y110.999 E0.05036
G1 X143.868 Y111.946 E0.05166
G1 X143.356 Y112.184 E0.01771
G1 X143.191 Y112.319 E0.00669
G1 X142.782 Y112.568 E0.01501
G1 X141.819 Y112.901 E0.03193
G1 X141.210 Y112.934 E0.01915
G1 X141.198 Y113.311 E0.01183
G1 X141.037 Y114.034 E0.02322
G1 X140.493 Y115.074 E0.03679
G1 X139.498 Y116.044 E0.04356
G1 X138.208 Y116.633 E0.04447
G1 X137.641 Y116.707 E0.01794
G1 X136.874 Y116.700 E0.02404
G1 X136.637 Y116.727 E0.00748
G1 X135.249 Y116.727 E0.04352
G1 X134.609 Y116.700 E0.02009
G1 X134.375 Y116.727 E0.00740
G1 X113.363 Y116.727 E0.65881
G1 X113.111 Y116.698 E0.00794
G1 X111.983 Y116.661 E0.03539
G1 X110.788 Y116.235 E0.03980
G1 X110.206 Y115.811 E0.02256
G1 X109.562 Y115.144 E0.02908
G1 X109.126 Y114.438 E0.02602
G1 X108.839 Y113.558 E0.02904
G1 X108.813 Y112.956 E0.01887
G1 X108.296 Y112.939 E0.01623
G1 X107.368 Y112.685 E0.03018
G1 X106.626 Y112.262 E0.02676
G1 X106.427 Y112.092 E0.00821
G1 X105.968 Y111.870 E0.01598
G1 X104.705 Y110.953 E0.04895
G1 X103.280 Y109.288 E0.06870
G1 X102.472 Y107.610 E0.05838
G1 X102.058 Y105.697 E0.06140
G1 X102.115 Y103.822 E0.05880
G1 X102.612 Y102.005 E0.05908
G1 X103.402 Y100.529 E0.05246
G1 X104.511 Y99.224 E0.05371
G1 X105.932 Y98.152 E0.05581
G1 X106.591 Y97.838 E0.02288
G1 X106.770 Y97.689 E0.00731
G1 X107.164 Y97.445 E0.01454
G1 X108.061 Y97.117 E0.02996
G1 X108.821 Y97.075 E0.02385
G1 X108.849 Y96.601 E0.01490
G1 X109.167 Y95.638 E0.03178
G1 X109.642 Y94.870 E0.02832
G1 X110.340 Y94.173 E0.03093
G1 X110.932 Y93.758 E0.02267
G1 X112.508 Y93.273 E0.05172
G1 X136.637 Y93.273 E0.75654
G1 X136.889 Y93.302 E0.00794
G1 X138.017 Y93.339 E0.03539
G1 X139.212 Y93.765 E0.03980
G1 X139.794 Y94.189 E0.02256
G1 X140.438 Y94.856 E0.02908
G1 X140.874 Y95.562 E0.02602
G1 X141.161 Y96.442 E0.02904
G1 X141.184 Y96.984 E0.01699
G1 X140.816 Y97.419 F10800.000
G1 F1200.000
G1 X141.581 Y97.429 E0.02399
G1 X142.422 Y97.645 E0.02724
G1 X143.024 Y97.975 E0.02151
G1 X143.293 Y98.195 E0.01089
G1 X143.630 Y98.351 E0.01164
G1 X144.695 Y99.056 E0.04006
G1 X146.016 Y100.405 E0.05920
G1 X146.888 Y101.864 E0.05328
G1 X147.407 Y103.464 E0.05276
G1 X147.567 Y105.083 E0.05102
G1 X147.398 Y106.591 E0.04756
G1 X146.822 Y108.279 E0.05594
G1 X146.025 Y109.584 E0.04794
G1 X144.983 Y110.702 E0.04791
G1 X143.666 Y111.628 E0.05048
G1 X143.153 Y111.862 E0.01771
G1 X142.982 Y112.005 E0.00698
G1 X142.604 Y112.235 E0.01388
G1 X141.726 Y112.534 E0.02908
G1 X140.835 Y112.567 E0.02796
G1 X140.825 Y113.250 E0.02140
G1 X140.674 Y113.928 E0.02180
G1 X140.206 Y114.827 E0.03178
G1 X139.309 Y115.716 E0.03961
G1 X138.131 Y116.263 E0.04072
G1 X137.606 Y116.331 E0.01660
G1 X136.853 Y116.322 E0.02360
G1 X136.625 Y116.350 E0.00720
G1 X135.253 Y116.350 E0.04301
G1 X134.594 Y116.322 E0.02070
G1 X134.363 Y116.350 E0.00729
G1 X113.375 Y116.350 E0.65806
G1 X113.139 Y116.321 E0.00746
G1 X112.079 Y116.295 E0.03325
G1 X110.986 Y115.913 E0.03630
G1 X110.465 Y115.536 E0.02018
G1 X109.870 Y114.926 E0.02670
G1 X109.477 Y114.299 E0.02320
G1 X109.206 Y113.468 E0.02739
G1 X109.184 Y112.583 E0.02778
G1 X108.371 Y112.569 E0.02549
G1 X107.491 Y112.328 E0.02861
G1 X106.833 Y111.946 E0.02386
G1 X106.638 Y111.774 E0.00816
G1 X106.174 Y111.554 E0.01609
G1 X104.976 Y110.690 E0.04633
G1 X103.609 Y109.101 E0.06572
G1 X102.836 Y107.507 E0.05554
G1 X102.435 Y105.685 E0.05851
G1 X102.491 Y103.856 E0.05735
G1 X102.970 Y102.126 E0.05629
G1 X103.724 Y100.726 E0.04987
G1 X104.754 Y99.512 E0.04990
G1 X106.143 Y98.466 E0.05453
G1 X106.797 Y98.158 E0.02267
G1 X106.981 Y98.002 E0.00757
G1 X107.345 Y97.776 E0.01344
G1 X108.160 Y97.482 E0.02718
G1 X109.189 Y97.440 E0.03227
G1 X109.216 Y96.691 E0.02348
G1 X109.517 Y95.779 E0.03015
G1 X109.949 Y95.090 E0.02549
G1 X110.593 Y94.453 E0.02839
G1 X111.123 Y94.085 E0.02023
G1 X112.537 Y93.650 E0.04637
G1 X136.625 Y93.650 E0.75528
G1 X136.861 Y93.679 E0.00746
G1 X137.921 Y93.705 E0.03325
G1 X139.014 Y94.087 E0.03630
G1 X139.535 Y94.464 E0.02018
G1 X140.130 Y95.074 E0.02670
G1 X140.523 Y95.701 E0.02320
G1 X140.794 Y96.531 E0.02739
G1 X140.815 Y97.359 E0.02596
G1 X140.442 Y97.797 F10800.000
G1 F1200.000
G1 X141.513 Y97.800 E0.03358
G1 X142.263 Y97.988 E0.02423
G1 X142.826 Y98.296 E0.02011
G1 X143.089 Y98.517 E0.01078
G1 X143.434 Y98.674 E0.01188
G1 X144.470 Y99.359 E0.03893
G1 X145.730 Y100.652 E0.05661
G1 X146.553 Y102.037 E0.05052
G1 X147.042 Y103.560 E0.05015
G1 X147.190 Y105.062 E0.04733
G1 X147.034 Y106.490 E0.04503
G1 X146.489 Y108.102 E0.05335
G1 X145.735 Y109.342 E0.04551
G1 X144.750 Y110.405 E0.04545
G1 X143.465 Y111.308 E0.04926
G1 X142.948 Y111.540 E0.01776
G1 X142.772 Y111.691 E0.00727
G1 X142.426 Y111.902 E0.01269
G1 X141.634 Y112.167 E0.02619
G1 X140.458 Y112.198 E0.03688
G1 X140.452 Y113.188 E0.03105
G1 X140.311 Y113.823 E0.02039
G1 X139.918 Y114.583 E0.02684
G1 X139.117 Y115.390 E0.03566
G1 X138.052 Y115.893 E0.03691
G1 X137.571 Y115.955 E0.01522
G1 X136.831 Y115.945 E0.02319
G1 X136.612 Y115.973 E0.00692
G1 X135.270 Y115.973 E0.04210
G1 X135.079 Y115.952 E0.00602
G1 X134.569 Y115.945 E0.01599
G1 X134.350 Y115.973 E0.00692
G1 X113.388 Y115.973 E0.65726
G1 X113.166 Y115.944 E0.00702
G1 X112.171 Y115.929 E0.03118
G1 X111.182 Y115.590 E0.03277
G1 X110.723 Y115.260 E0.01774
G1 X110.155 Y114.678 E0.02550
G1 X109.810 Y114.121 E0.02052
G1 X109.574 Y113.382 E0.02433
G1 X109.558 Y112.206 E0.03686
G1 X108.446 Y112.199 E0.03485
G1 X107.616 Y111.971 E0.02700
G1 X107.043 Y111.633 E0.02086
G1 X106.850 Y111.457 E0.00818
G1 X106.378 Y111.237 E0.01632
G1 X105.246 Y110.426 E0.04368
G1 X103.936 Y108.913 E0.06273
G1 X103.199 Y107.403 E0.05269
G1 X102.813 Y105.672 E0.05560
G1 X102.867 Y103.891 E0.05587
G1 X103.327 Y102.248 E0.05349
G1 X104.025 Y100.954 E0.04610
G1 X104.998 Y99.801 E0.04732
G1 X106.353 Y98.779 E0.05321
G1 X107.004 Y98.478 E0.02249
G1 X107.196 Y98.312 E0.00795
G1 X107.493 Y98.124 E0.01104
G1 X108.259 Y97.847 E0.02554
G1 X109.560 Y97.808 E0.04080
G1 X109.583 Y96.780 E0.03224
G1 X109.850 Y95.957 E0.02714
G1 X110.231 Y95.342 E0.02267
G1 X110.846 Y94.733 E0.02713
G1 X111.313 Y94.412 E0.01776
G1 X112.565 Y94.027 E0.04107
G1 X136.612 Y94.027 E0.75400
M73 P2 R30
M73 Q2 S30
G1 X136.834 Y94.056 E0.00702
G1 X137.829 Y94.071 E0.03118
G1 X138.818 Y94.410 E0.03277
G1 X139.277 Y94.740 E0.01774
G1 X139.845 Y95.322 E0.02550
G1 X140.190 Y95.879 E0.02052
G1 X140.426 Y96.618 E0.02433
G1 X140.441 Y97.737 E0.03508
G1 X140.070 Y98.173 F10800.000
G1 F1200.000
G1 X141.489 Y98.177 E0.04449
G1 X142.103 Y98.330 E0.01984
G1 X142.626 Y98.617 E0.01870
G1 X142.885 Y98.839 E0.01068
G1 X143.240 Y98.997 E0.01218
G1 X144.244 Y99.662 E0.03778
G1 X145.444 Y100.898 E0.05399
G1 X146.217 Y102.210 E0.04775
G1 X146.677 Y103.655 E0.04755
G1 X146.813 Y105.042 E0.04369
G1 X146.670 Y106.390 E0.04251
G1 X146.156 Y107.925 E0.05075
G1 X145.445 Y109.100 E0.04305
G1 X144.487 Y110.134 E0.04420
G1 X143.264 Y110.988 E0.04678
G1 X142.742 Y111.219 E0.01791
G1 X142.561 Y111.378 E0.00757
G1 X142.249 Y111.568 E0.01144
G1 X141.544 Y111.800 E0.02326
G1 X140.083 Y111.826 E0.04581
G1 X140.075 Y113.165 E0.04198
G1 X139.950 Y113.714 E0.01766
G1 X139.598 Y114.381 E0.02364
G1 X138.875 Y115.099 E0.03197
G1 X137.974 Y115.523 E0.03123
G1 X137.562 Y115.578 E0.01301
G1 X136.808 Y115.567 E0.02366
G1 X136.599 Y115.596 E0.00661
G1 X135.281 Y115.596 E0.04132
G1 X135.104 Y115.575 E0.00560
G1 X134.545 Y115.567 E0.01752
G1 X134.336 Y115.596 E0.00661
G1 X113.401 Y115.596 E0.65641
G1 X113.192 Y115.567 E0.00661
G1 X112.261 Y115.561 E0.02920
G1 X111.377 Y115.266 E0.02922
G1 X110.980 Y114.984 E0.01525
G1 X110.440 Y114.430 E0.02427
G1 X110.144 Y113.944 E0.01784
G1 X109.951 Y113.348 E0.01964
G1 X109.930 Y111.828 E0.04767
G1 X108.521 Y111.828 E0.04416
G1 X107.742 Y111.614 E0.02534
G1 X107.257 Y111.322 E0.01774
G1 X107.065 Y111.140 E0.00829
G1 X106.582 Y110.919 E0.01667
G1 X105.515 Y110.161 E0.04103
G1 X104.264 Y108.724 E0.05974
G1 X103.561 Y107.298 E0.04985
G1 X103.191 Y105.658 E0.05270
G1 X103.237 Y103.969 E0.05299
G1 X103.669 Y102.408 E0.05078
G1 X104.347 Y101.150 E0.04480
G1 X105.272 Y100.061 E0.04480
G1 X106.563 Y99.094 E0.05058
G1 X107.213 Y98.798 E0.02240
G1 X107.411 Y98.622 E0.00831
G1 X107.677 Y98.454 E0.00986
G1 X108.356 Y98.213 E0.02260
G1 X109.934 Y98.178 E0.04949
G1 X109.951 Y96.866 E0.04114
G1 X110.185 Y96.132 E0.02414
G1 X110.513 Y95.593 E0.01980
G1 X111.099 Y95.013 E0.02583
G1 X111.501 Y94.740 E0.01526
G1 X112.593 Y94.404 E0.03582
G1 X136.599 Y94.404 E0.75270
G1 X136.808 Y94.433 E0.00661
G1 X137.739 Y94.439 E0.02920
G1 X138.623 Y94.734 E0.02922
G1 X139.020 Y95.016 E0.01525
G1 X139.560 Y95.570 E0.02427
G1 X139.856 Y96.056 E0.01784
G1 X140.049 Y96.652 E0.01964
G1 X140.070 Y98.113 E0.04581
G1 X139.699 Y98.548 F10800.000
G1 F1200.000
G1 X141.464 Y98.554 E0.05535
G1 X141.984 Y98.689 E0.01685
G1 X142.423 Y98.935 E0.01578
G1 X142.679 Y99.161 E0.01071
G1 X143.046 Y99.321 E0.01254
G1 X144.019 Y99.965 E0.03659
G1 X145.156 Y101.143 E0.05135
G1 X145.881 Y102.382 E0.04497
G1 X146.311 Y103.750 E0.04497
G1 X146.436 Y105.022 E0.04010
G1 X146.306 Y106.291 E0.03999
G1 X145.822 Y107.748 E0.04813
G1 X145.133 Y108.888 E0.04176
G1 X144.226 Y109.861 E0.04173
G1 X143.065 Y110.668 E0.04429
G1 X142.534 Y110.898 E0.01815
G1 X142.344 Y111.069 E0.00803
G1 X142.108 Y111.218 E0.00875
G1 X141.455 Y111.433 E0.02157
G1 X139.707 Y111.451 E0.05481
G1 X139.703 Y113.105 E0.05187
G1 X139.603 Y113.562 E0.01464
G1 X139.278 Y114.180 E0.02192
G1 X138.682 Y114.774 E0.02638
G1 X137.892 Y115.154 E0.02750
G1 X137.553 Y115.201 E0.01072
G1 X136.782 Y115.190 E0.02417
G1 X136.584 Y115.219 E0.00626
G1 X135.294 Y115.219 E0.04047
G1 X135.131 Y115.199 E0.00515
G1 X134.520 Y115.190 E0.01916
G1 X134.322 Y115.219 E0.00626
G1 X113.416 Y115.219 E0.65550
